(G-code generated by FlatCAM Evo vUnstable - Version Date: 2023/6/31)

(Name: breakoutpcbs-Edge_Cuts_cutout_cnc)
(Type: G-code from Geometry)
(Units: MM)

(Created on Thursday, 02 January 2025 at 15:34)

(This preprocessor is the default preprocessor.)
(It is made to work with MACH3 compatible motion controllers.)

(TOOL DIAMETER: 2.0 mm)
(Feedrate_XY: 120.0 mm/min)
(Feedrate_Z: 60.0 mm/min)
(Feedrate rapids 1500.0 mm/min)

(Z_Cut: -1.4 mm)
(DepthPerCut: 0.6 mm <=>3 passes)
(Z_Move: 2.0 mm)
(Z Start: None mm)
(Z End: 15.0 mm)
(X,Y End: None mm)
(Steps per circle: 16)
(Preprocessor Geometry: default)

(X range:   -1.1250 ...   43.0350  mm)
(Y range:   -1.1250 ...   22.4610  mm)

(Spindle Speed: 10000.0 RPM)
G21
G90
G94

G01 F120.00

M5
G00 Z15.0000
G00 X0.0000 Y0.0000
T1
M6    
(MSG, Change to Tool Dia = 2.0000)
M0
G00 Z15.0000

M03 S10000.0
G4 P1.0
G01 F120.00
G00 X-1.1250 Y9.4180
G01 F60.00
G01 Z-0.6000
G01 F120.00
G01 X-1.1236 Y-0.0564
G01 X-1.1034 Y-0.2195
G01 X-1.0596 Y-0.3778
G01 X-1.0164 Y-0.4821
G01 X-0.9354 Y-0.6250
G01 X-0.8344 Y-0.7546
G01 X-0.7546 Y-0.8344
G01 X-0.6250 Y-0.9354
G01 X-0.5303 Y-0.9922
G01 X-0.3802 Y-1.0588
G01 X-0.2722 Y-1.0916
G01 X-0.1103 Y-1.1196
G01 X0.0000 Y-1.1250
G01 X19.7050 Y-1.1250
G00 X19.7050 Y-1.1250
G01 F60.00
G01 Z-1.2000
G01 F120.00
G01 X0.0000 Y-1.1250
G01 X-0.1103 Y-1.1196
G01 X-0.2722 Y-1.0916
G01 X-0.3802 Y-1.0588
G01 X-0.5303 Y-0.9922
G01 X-0.6250 Y-0.9354
G01 X-0.7546 Y-0.8344
G01 X-0.8344 Y-0.7546
G01 X-0.9354 Y-0.6250
G01 X-1.0164 Y-0.4821
G01 X-1.0596 Y-0.3778
G01 X-1.1034 Y-0.2195
G01 X-1.1236 Y-0.0564
G01 X-1.1250 Y9.4180
G00 X-1.1250 Y9.4180
G01 F60.00
G01 Z-1.4000
G01 F120.00
G01 X-1.1236 Y-0.0564
G01 X-1.1034 Y-0.2195
G01 X-1.0596 Y-0.3778
G01 X-1.0164 Y-0.4821
G01 X-0.9354 Y-0.6250
G01 X-0.8344 Y-0.7546
G01 X-0.7546 Y-0.8344
G01 X-0.6250 Y-0.9354
G01 X-0.5303 Y-0.9922
G01 X-0.3802 Y-1.0588
G01 X-0.2722 Y-1.0916
G01 X-0.1103 Y-1.1196
G01 X0.0000 Y-1.1250
G01 X19.7050 Y-1.1250
G00 Z2.0000
G00 X-1.1250 Y11.9180
G01 F60.00
G01 Z-0.6000
G01 F120.00
G01 X-1.1236 Y21.3924
G01 X-1.1034 Y21.5555
G01 X-1.0596 Y21.7138
G01 X-1.0164 Y21.8181
G01 X-0.9354 Y21.9610
G01 X-0.8696 Y22.0497
G01 X-0.7564 Y22.1687
G01 X-0.6692 Y22.2403
G01 X-0.5303 Y22.3282
G01 X-0.3802 Y22.3948
G01 X-0.2722 Y22.4276
G01 X-0.1103 Y22.4556
G01 X0.0000 Y22.4610
G01 X19.7050 Y22.4610
G00 X19.7050 Y22.4610
G01 F60.00
G01 Z-1.2000
G01 F120.00
G01 X0.0000 Y22.4610
G01 X-0.1103 Y22.4556
G01 X-0.2722 Y22.4276
G01 X-0.3802 Y22.3948
G01 X-0.5303 Y22.3282
G01 X-0.6692 Y22.2403
G01 X-0.7564 Y22.1687
G01 X-0.8696 Y22.0497
G01 X-0.9354 Y21.9610
G01 X-1.0164 Y21.8181
G01 X-1.0596 Y21.7138
G01 X-1.1034 Y21.5555
G01 X-1.1236 Y21.3924
G01 X-1.1250 Y11.9180
G00 X-1.1250 Y11.9180
G01 F60.00
G01 Z-1.4000
G01 F120.00
G01 X-1.1236 Y21.3924
G01 X-1.1034 Y21.5555
G01 X-1.0596 Y21.7138
G01 X-1.0164 Y21.8181
G01 X-0.9354 Y21.9610
G01 X-0.8696 Y22.0497
G01 X-0.7564 Y22.1687
G01 X-0.6692 Y22.2403
G01 X-0.5303 Y22.3282
G01 X-0.3802 Y22.3948
G01 X-0.2722 Y22.4276
G01 X-0.1103 Y22.4556
G01 X0.0000 Y22.4610
G01 X19.7050 Y22.4610
G00 Z2.0000
G00 X22.2050 Y22.4610
G01 F60.00
G01 Z-0.6000
G01 F120.00
G01 X41.9100 Y22.4610
G01 X42.0203 Y22.4556
G01 X42.1822 Y22.4276
G01 X42.2902 Y22.3948
G01 X42.4403 Y22.3282
G01 X42.5350 Y22.2714
G01 X42.6646 Y22.1704
G01 X42.7444 Y22.0906
G01 X42.8454 Y21.9610
G01 X42.9264 Y21.8181
G01 X42.9696 Y21.7138
G01 X43.0134 Y21.5555
G01 X43.0336 Y21.3924
G01 X43.0350 Y11.9180
G00 X43.0350 Y11.9180
G01 F60.00
G01 Z-1.2000
G01 F120.00
G01 X43.0336 Y21.3924
G01 X43.0134 Y21.5555
G01 X42.9696 Y21.7138
G01 X42.9264 Y21.8181
G01 X42.8454 Y21.9610
G01 X42.7444 Y22.0906
G01 X42.6646 Y22.1704
G01 X42.5350 Y22.2714
G01 X42.4403 Y22.3282
G01 X42.2902 Y22.3948
G01 X42.1822 Y22.4276
G01 X42.0203 Y22.4556
G01 X41.9100 Y22.4610
G01 X22.2050 Y22.4610
G00 X22.2050 Y22.4610
G01 F60.00
G01 Z-1.4000
G01 F120.00
G01 X41.9100 Y22.4610
G01 X42.0203 Y22.4556
G01 X42.1822 Y22.4276
G01 X42.2902 Y22.3948
G01 X42.4403 Y22.3282
G01 X42.5350 Y22.2714
G01 X42.6646 Y22.1704
G01 X42.7444 Y22.0906
G01 X42.8454 Y21.9610
G01 X42.9264 Y21.8181
G01 X42.9696 Y21.7138
G01 X43.0134 Y21.5555
G01 X43.0336 Y21.3924
G01 X43.0350 Y11.9180
G00 Z2.0000
G00 X43.0350 Y9.4180
G01 F60.00
G01 Z-0.6000
G01 F120.00
G01 X43.0336 Y-0.0564
G01 X43.0134 Y-0.2195
G01 X42.9696 Y-0.3778
G01 X42.9264 Y-0.4821
G01 X42.8454 Y-0.6250
G01 X42.7796 Y-0.7137
G01 X42.6664 Y-0.8327
G01 X42.5792 Y-0.9043
G01 X42.4403 Y-0.9922
G01 X42.2902 Y-1.0588
G01 X42.1822 Y-1.0916
G01 X42.0203 Y-1.1196
G01 X41.9100 Y-1.1250
G01 X22.2050 Y-1.1250
G00 X22.2050 Y-1.1250
G01 F60.00
G01 Z-1.2000
G01 F120.00
G01 X41.9100 Y-1.1250
G01 X42.0203 Y-1.1196
G01 X42.1822 Y-1.0916
G01 X42.2902 Y-1.0588
G01 X42.4403 Y-0.9922
G01 X42.5792 Y-0.9043
G01 X42.6664 Y-0.8327
G01 X42.7796 Y-0.7137
G01 X42.8454 Y-0.6250
G01 X42.9264 Y-0.4821
G01 X42.9696 Y-0.3778
G01 X43.0134 Y-0.2195
G01 X43.0336 Y-0.0564
G01 X43.0350 Y9.4180
G00 X43.0350 Y9.4180
G01 F60.00
G01 Z-1.4000
G01 F120.00
G01 X43.0336 Y-0.0564
G01 X43.0134 Y-0.2195
G01 X42.9696 Y-0.3778
G01 X42.9264 Y-0.4821
G01 X42.8454 Y-0.6250
G01 X42.7796 Y-0.7137
G01 X42.6664 Y-0.8327
G01 X42.5792 Y-0.9043
G01 X42.4403 Y-0.9922
G01 X42.2902 Y-1.0588
G01 X42.1822 Y-1.0916
G01 X42.0203 Y-1.1196
G01 X41.9100 Y-1.1250
G01 X22.2050 Y-1.1250
G00 Z2.0000
M05
G00 Z2.0000
G00 Z15.00


