(G-code generated by FlatCAM Evo vUnstable - Version Date: 2023/6/31)

(Name: breakoutpcbs-F_Cu.gbr_iso_combined_cnc)
(Type: G-code from Geometry)
(Units: MM)

(Created on Thursday, 02 January 2025 at 15:33)

(This preprocessor is the default preprocessor.)
(It is made to work with MACH3 compatible motion controllers.)

(TOOL DIAMETER: 0.1468 mm)
(Feedrate_XY: 500.0 mm/min)
(Feedrate_Z: 500.0 mm/min)
(Feedrate rapids 1500.0 mm/min)

(Z_Cut: -0.05 mm)
(Z_Move: 1.0 mm)
(Z Start: None mm)
(Z End: 15.0 mm)
(X,Y End: None mm)
(Steps per circle: 16)
(Preprocessor Geometry: default)

(X range:    0.1629 ...   41.7471  mm)
(Y range:    0.1629 ...   21.1731  mm)

(Spindle Speed: 10000.0 RPM)
G21
G90
G94

G01 F500.00

M5
G00 Z15.0000
G00 X0.0000 Y0.0000
T1
M6    
(MSG, Change to Tool Dia = 0.1468)
M0
G00 Z15.0000

M03 S10000.0
G4 P1.0
G01 F500.00
G00 X11.6930 Y1.4420
G01 F500.00
G01 Z-0.0500
G01 F500.00
G01 X11.7753 Y1.3231
G01 X11.8387 Y1.2876
G01 X11.9403 Y1.2649
G01 X15.3661 Y1.2649
G01 X15.4490 Y1.2790
G01 X15.5679 Y1.3613
G01 X15.6034 Y1.4247
G01 X15.6261 Y1.5263
G01 X15.6262 Y6.1510
G01 X15.6661 Y6.2652
G01 X15.7391 Y6.3259
G01 X15.8196 Y6.3448
G01 X19.1761 Y6.3449
G01 X19.4168 Y6.4112
G01 X19.6388 Y6.3449
G01 X22.2061 Y6.3449
G01 X22.3004 Y6.3200
G01 X22.3856 Y6.2295
G01 X22.3982 Y6.1058
G01 X22.3509 Y6.0136
G01 X22.1511 Y5.8777
G01 X22.1156 Y5.8143
G01 X22.0929 Y5.7127
G01 X22.0929 Y3.8109
G01 X22.1070 Y3.7280
G01 X22.1893 Y3.6091
G01 X22.2527 Y3.5736
G01 X22.3543 Y3.5509
G01 X34.2515 Y3.5509
G01 X34.3719 Y3.5837
G01 X34.4290 Y3.6287
G01 X34.5017 Y3.7294
G01 X34.5510 Y3.7484
G01 X37.0646 Y3.7483
G01 X37.1129 Y3.7269
G01 X37.2021 Y3.6091
G01 X37.2655 Y3.5736
G01 X37.3671 Y3.5509
G01 X40.5121 Y3.5509
G01 X40.5950 Y3.5650
G01 X40.6603 Y3.5998
G01 X40.7139 Y3.6473
G01 X40.7494 Y3.7107
G01 X40.7721 Y3.8123
G01 X40.7721 Y11.4291
G01 X40.7580 Y11.5120
G01 X40.7232 Y11.5773
G01 X40.6757 Y11.6309
G01 X40.6123 Y11.6664
G01 X40.5107 Y11.6891
G01 X37.4630 Y11.6891
G01 X37.3858 Y11.6767
G01 X37.3196 Y11.6434
G01 X37.2649 Y11.5971
G01 X37.2281 Y11.5345
G01 X37.2031 Y11.4334
G01 X37.1566 Y9.3404
G01 X37.1188 Y9.2305
G01 X37.0432 Y9.1680
G01 X36.9612 Y9.1491
G01 X33.7829 Y9.1491
G01 X33.7000 Y9.1350
G01 X33.6347 Y9.1002
G01 X33.5811 Y9.0527
G01 X33.5456 Y8.9893
G01 X33.5229 Y8.8877
G01 X33.5216 Y6.9147
G01 X33.4916 Y6.8219
G01 X33.4174 Y6.7545
G01 X33.1679 Y6.6737
G01 X32.1174 Y6.6727
G01 X31.8779 Y6.7361
G01 X31.7950 Y6.7220
G01 X31.7297 Y6.6872
G01 X31.5958 Y6.5512
G01 X31.4977 Y6.5231
G01 X31.3064 Y6.5234
G01 X31.2257 Y6.5458
G01 X31.1388 Y6.6293
G01 X31.1172 Y6.7398
G01 X31.1481 Y6.8681
G01 X31.1481 Y7.2239
G01 X31.0676 Y7.4628
G01 X31.1201 Y7.6758
G01 X31.1201 Y9.9051
G01 X31.1060 Y9.9880
G01 X31.0237 Y10.1069
G01 X30.9603 Y10.1424
G01 X30.8587 Y10.1651
G01 X27.3770 Y10.1652
G01 X27.2709 Y10.1984
G01 X27.1979 Y10.2883
G01 X27.1831 Y10.3625
G01 X27.1832 Y12.5010
G01 X27.2144 Y12.6042
G01 X27.3028 Y12.6789
G01 X27.3805 Y12.6949
G01 X37.1189 Y12.6988
G01 X37.2313 Y12.7438
G01 X37.2849 Y12.7913
G01 X37.3204 Y12.8547
G01 X37.3431 Y12.9563
G01 X37.3392 Y14.0049
G01 X37.2942 Y14.1173
G01 X37.2467 Y14.1709
G01 X37.1833 Y14.2064
G01 X37.0817 Y14.2291
G01 X29.1795 Y14.2294
G01 X29.0769 Y14.2624
G01 X29.0039 Y14.3523
G01 X28.9891 Y14.4245
G01 X28.9891 Y14.7879
G01 X28.9816 Y14.8395
G01 X28.9406 Y14.9232
G01 X28.8752 Y14.9886
G01 X28.7915 Y15.0296
G01 X28.7399 Y15.0371
G01 X27.6591 Y15.0371
G01 X27.4962 Y15.0080
G01 X27.3175 Y15.0954
G01 X27.2160 Y15.1181
G01 X24.4045 Y15.1181
G01 X24.2313 Y15.0871
G01 X23.2795 Y15.0871
G01 X23.1045 Y15.1181
G01 X22.5726 Y15.1181
G01 X22.4534 Y15.0893
G01 X22.3797 Y15.0359
G01 X22.2850 Y15.0036
G01 X22.1304 Y15.0321
G01 X21.0496 Y15.0321
G01 X20.8940 Y15.0047
G01 X20.7988 Y15.0397
G01 X20.7088 Y15.0954
G01 X20.6072 Y15.1181
G01 X18.8057 Y15.1182
G01 X18.6915 Y15.1581
G01 X18.6335 Y15.2261
G01 X18.5961 Y15.3195
G01 X18.5792 Y15.4014
G01 X18.5791 Y15.7050
G01 X18.5961 Y15.7905
G01 X18.6557 Y15.8985
G01 X18.7201 Y15.9667
G01 X18.8148 Y15.9962
G01 X20.4489 Y15.9969
G01 X20.5397 Y16.0137
G01 X20.6708 Y16.1120
G01 X20.7677 Y16.1582
G01 X20.8599 Y16.1522
G01 X20.9980 Y16.0854
G01 X21.0496 Y16.0779
G01 X22.1304 Y16.0779
G01 X22.1820 Y16.0854
G01 X22.2657 Y16.1264
G01 X22.3404 Y16.1999
G01 X22.4238 Y16.2447
G01 X22.8896 Y16.2510
G01 X22.9972 Y16.2813
G01 X23.1557 Y16.3843
G01 X23.2759 Y16.4088
G01 X24.2890 Y16.4033
G01 X24.3787 Y16.3723
G01 X24.4790 Y16.2972
G01 X24.5836 Y16.2577
G01 X25.0681 Y16.2479
G01 X25.1547 Y16.2192
G01 X25.2488 Y16.1314
G01 X25.3325 Y16.0904
G01 X25.3841 Y16.0829
G01 X26.4649 Y16.0829
G01 X26.5165 Y16.0904
G01 X26.6002 Y16.1314
G01 X26.7279 Y16.2513
G01 X26.8173 Y16.2998
G01 X26.8709 Y16.3473
G01 X26.9682 Y16.5223
G01 X27.0849 Y16.5740
G01 X27.1876 Y16.5559
G01 X27.2704 Y16.4816
G01 X27.2992 Y16.3883
G01 X27.3038 Y16.2211
G01 X27.3488 Y16.1087
G01 X27.3963 Y16.0551
G01 X27.4597 Y16.0196
G01 X27.5613 Y15.9969
G01 X37.5400 Y15.9968
G01 X37.6432 Y15.9656
G01 X37.7179 Y15.8772
G01 X37.7339 Y15.8015
G01 X37.7339 Y15.3625
G01 X37.7694 Y15.2834
G01 X37.8114 Y15.2553
G01 X40.3835 Y15.2479
G01 X40.4626 Y15.2834
G01 X40.5444 Y15.3583
G01 X40.6603 Y15.4108
G01 X40.7139 Y15.4583
G01 X40.7653 Y15.5757
G01 X40.7721 Y17.2711
G01 X40.7580 Y17.3540
G01 X40.7232 Y17.4193
G01 X40.6757 Y17.4729
G01 X40.6123 Y17.5084
G01 X40.5107 Y17.5311
G01 X37.6618 Y17.5311
G01 X37.5551 Y17.5624
G01 X37.4838 Y17.6434
G01 X37.4657 Y17.7427
G01 X37.4662 Y19.4659
G01 X37.4212 Y19.5783
G01 X37.3737 Y19.6319
G01 X37.3103 Y19.6674
G01 X37.2087 Y19.6901
G01 X15.6219 Y19.6901
G01 X15.5390 Y19.6760
G01 X15.4737 Y19.6412
G01 X15.4201 Y19.5937
G01 X15.3846 Y19.5303
G01 X15.3619 Y19.4288
G01 X15.3619 Y13.6645
G01 X15.3324 Y13.5608
G01 X15.2521 Y13.4878
G01 X15.1665 Y13.4671
G01 X12.1929 Y13.4671
G01 X12.1100 Y13.4530
G01 X12.0447 Y13.4182
G01 X11.9911 Y13.3707
G01 X11.9397 Y13.2533
G01 X11.9368 Y8.6726
G01 X11.9092 Y8.5617
G01 X11.8517 Y8.5000
G01 X11.7371 Y8.4177
G01 X11.7016 Y8.3543
G01 X11.6789 Y8.2527
G01 X11.6789 Y1.5249
G01 X11.6930 Y1.4420
G00 Z1.0000
G00 X11.7406 Y8.2787
G01 F500.00
G01 Z-0.0500
G01 F500.00
G01 X11.7826 Y8.3805
G01 X11.8506 Y8.4364
G01 X11.9350 Y8.4554
G01 X19.1800 Y8.4554
G01 X19.2837 Y8.4259
G01 X19.3584 Y8.3424
G01 X19.3774 Y8.2580
G01 X19.3773 Y6.5975
G01 X19.3441 Y6.4914
G01 X19.2644 Y6.4226
G01 X19.1800 Y6.4036
G01 X15.5674 Y6.4036
G01 X15.5674 Y1.5210
G01 X15.5379 Y1.4173
G01 X15.4544 Y1.3426
G01 X15.3700 Y1.3236
G01 X11.9315 Y1.3237
G01 X11.8254 Y1.3569
G01 X11.7566 Y1.4366
G01 X11.7376 Y1.5210
G01 X11.7406 Y8.2787
G00 Z1.0000
G00 X12.0143 Y13.2987
G01 F500.00
G01 Z-0.0500
G01 F500.00
G01 X12.0982 Y13.3858
G01 X12.1851 Y13.4083
G01 X15.4206 Y13.4084
G01 X15.4206 Y19.4340
G01 X15.4539 Y19.5436
G01 X15.5473 Y19.6176
G01 X15.6180 Y19.6314
G01 X37.2140 Y19.6314
G01 X37.3236 Y19.5981
G01 X37.3976 Y19.5047
G01 X37.4114 Y19.4340
G01 X37.4113 Y17.7735
G01 X37.3690 Y17.6568
G01 X37.2984 Y17.5986
G01 X37.2179 Y17.5797
G01 X27.1230 Y17.5797
G01 X27.0114 Y17.6172
G01 X26.9481 Y17.6926
G01 X26.9308 Y17.7614
G01 X26.9291 Y18.5411
G01 X26.9150 Y18.6240
G01 X26.8327 Y18.7429
G01 X26.7153 Y18.7943
G01 X20.8289 Y18.8011
G01 X20.7460 Y18.7870
G01 X20.6807 Y18.7522
G01 X20.6271 Y18.7047
G01 X20.5916 Y18.6413
G01 X20.5689 Y18.5398
G01 X20.5689 Y16.5109
G01 X20.5830 Y16.4280
G01 X20.6494 Y16.2695
G01 X20.6205 Y16.1485
G01 X20.5424 Y16.0770
G01 X20.4573 Y16.0557
G01 X18.6154 Y16.0556
G01 X18.6124 Y15.9707
G01 X18.5329 Y15.7845
G01 X18.5254 Y15.7329
G01 X18.5254 Y15.3771
G01 X18.5691 Y15.1756
G01 X18.5323 Y15.0855
G01 X18.4681 Y15.0217
G01 X18.4326 Y14.9583
G01 X18.4099 Y14.8567
G01 X18.4099 Y13.5375
G01 X18.3836 Y13.4400
G01 X18.3033 Y13.3627
G01 X18.2242 Y13.3410
G01 X17.5269 Y13.3401
G01 X17.4440 Y13.3260
G01 X17.3251 Y13.2437
G01 X17.2737 Y13.1263
G01 X17.2669 Y10.9229
G01 X17.2810 Y10.8400
G01 X17.3158 Y10.7747
G01 X17.4519 Y10.6314
G01 X17.4723 Y10.5488
G01 X17.4724 Y10.3604
G01 X18.9295 Y10.3603
G01 X19.0297 Y10.3309
G01 X19.0966 Y10.2597
G01 X19.1234 Y10.1630
G01 X19.1233 Y8.7080
G01 X19.0901 Y8.6019
G01 X18.9967 Y8.5279
G01 X18.9260 Y8.5141
G01 X12.1890 Y8.5141
G01 X12.0794 Y8.5474
G01 X12.0106 Y8.6271
G01 X11.9916 Y8.7115
G01 X11.9916 Y13.2110
G01 X12.0143 Y13.2987
G00 Z1.0000
G00 X17.3483 Y13.1717
G01 F500.00
G01 Z-0.0500
G01 F500.00
G01 X17.4322 Y13.2588
G01 X17.5191 Y13.2813
G01 X18.4686 Y13.2814
G01 X18.4693 Y14.8724
G01 X18.5110 Y14.9822
G01 X18.5816 Y15.0404
G01 X18.6621 Y15.0593
G01 X20.6124 Y15.0594
G01 X20.7035 Y15.0357
G01 X20.7807 Y14.9616
G01 X20.7979 Y14.9240
G01 X20.8079 Y14.3755
G01 X20.8489 Y14.2918
G01 X20.9143 Y14.2264
G01 X20.9980 Y14.1854
G01 X21.0496 Y14.1779
G01 X22.1304 Y14.1779
G01 X22.1820 Y14.1854
G01 X22.2657 Y14.2264
G01 X22.3311 Y14.2918
G01 X22.3721 Y14.3755
G01 X22.3715 Y14.8440
G01 X22.3865 Y14.9405
G01 X22.4576 Y15.0259
G01 X22.5568 Y15.0586
G01 X23.1107 Y15.0593
G01 X23.2287 Y15.0334
G01 X24.2803 Y15.0334
G01 X24.4014 Y15.0594
G01 X27.2212 Y15.0594
G01 X27.3308 Y15.0261
G01 X27.4044 Y14.9342
G01 X27.4173 Y14.8443
G01 X27.4099 Y14.4321
G01 X27.4174 Y14.3805
G01 X27.4980 Y14.2197
G01 X27.5053 Y14.1704
G01 X37.0870 Y14.1704
G01 X37.2072 Y14.1280
G01 X37.2654 Y14.0574
G01 X37.2843 Y13.9769
G01 X37.2837 Y12.9406
G01 X37.2420 Y12.8308
G01 X37.1714 Y12.7726
G01 X37.0987 Y12.7545
G01 X27.1244 Y12.7536
G01 X27.1237 Y10.3442
G01 X27.0949 Y10.2509
G01 X27.0407 Y10.1933
G01 X26.8478 Y10.1173
G01 X26.7831 Y10.1067
G01 X25.6027 Y10.1066
G01 X25.3811 Y10.1651
G01 X23.0601 Y10.1651
G01 X22.9564 Y10.1946
G01 X22.8808 Y10.2798
G01 X22.8426 Y10.4186
G01 X22.7700 Y10.5458
G01 X22.7696 Y12.0548
G01 X22.7939 Y12.1308
G01 X22.7915 Y12.2631
G01 X22.7548 Y12.3393
G01 X22.7073 Y12.3929
G01 X22.6439 Y12.4284
G01 X22.5424 Y12.4511
G01 X21.5909 Y12.4511
G01 X21.3538 Y12.3849
G01 X21.1282 Y12.4511
G01 X19.4319 Y12.4511
G01 X19.3490 Y12.4370
G01 X19.2301 Y12.3547
G01 X19.1946 Y12.2913
G01 X19.1719 Y12.1897
G01 X19.1718 Y10.9155
G01 X19.1269 Y10.7965
G01 X19.0589 Y10.7406
G01 X18.9784 Y10.7217
G01 X17.5230 Y10.7216
G01 X17.4320 Y10.7453
G01 X17.3482 Y10.8282
G01 X17.3257 Y10.9151
G01 X17.3256 Y13.0840
G01 X17.3483 Y13.1717
G00 Z1.0000
G00 X19.2533 Y12.2827
G01 F500.00
G01 Z-0.0500
G01 F500.00
G01 X19.3372 Y12.3698
G01 X19.4280 Y12.3924
G01 X21.1370 Y12.3923
G01 X21.2372 Y12.3629
G01 X21.3041 Y12.2917
G01 X21.3308 Y12.1989
G01 X21.3341 Y11.8862
G01 X21.4016 Y11.6982
G01 X21.4264 Y11.5280
G01 X21.4235 Y11.0193
G01 X21.3309 Y10.6869
G01 X21.3309 Y8.1289
G01 X21.3450 Y8.0460
G01 X21.4273 Y7.9271
G01 X21.4907 Y7.8916
G01 X21.5922 Y7.8689
G01 X23.5658 Y7.8804
G01 X23.6951 Y7.8673
G01 X23.7824 Y7.8367
G01 X23.8567 Y7.7472
G01 X23.8858 Y7.5887
G01 X23.8874 Y6.8570
G01 X23.8677 Y6.5736
G01 X23.8358 Y6.4887
G01 X23.7702 Y6.4304
G01 X23.6735 Y6.4036
G01 X19.6335 Y6.4036
G01 X19.5298 Y6.4331
G01 X19.4629 Y6.5043
G01 X19.4361 Y6.6010
G01 X19.4322 Y8.2899
G01 X19.3872 Y8.4023
G01 X19.2545 Y8.5386
G01 X19.2307 Y8.6282
G01 X19.2306 Y12.1950
G01 X19.2533 Y12.2827
G00 Z1.0000
G00 X21.4123 Y12.2827
G01 F500.00
G01 Z-0.0500
G01 F500.00
G01 X21.4962 Y12.3698
G01 X21.5870 Y12.3924
G01 X22.5511 Y12.3923
G01 X22.6513 Y12.3629
G01 X22.7222 Y12.2862
G01 X22.7437 Y12.1766
G01 X22.7159 Y12.0655
G01 X22.7159 Y10.5405
G01 X22.8012 Y10.3674
G01 X22.8064 Y10.1064
G01 X25.3853 Y10.1064
G01 X25.5766 Y10.0529
G01 X26.8074 Y10.0529
G01 X26.9987 Y10.1064
G01 X30.8640 Y10.1064
G01 X30.9615 Y10.0801
G01 X31.0388 Y9.9998
G01 X31.0613 Y9.9129
G01 X31.0614 Y7.6705
G01 X31.0351 Y7.5730
G01 X30.9548 Y7.4957
G01 X30.8679 Y7.4732
G01 X29.8181 Y7.4731
G01 X29.6310 Y7.4197
G01 X28.9539 Y7.4203
G01 X28.8606 Y7.4491
G01 X28.7939 Y7.5201
G01 X28.7272 Y7.7352
G01 X28.6597 Y7.8267
G01 X28.5682 Y7.8942
G01 X28.4589 Y7.9324
G01 X27.4211 Y7.9324
G01 X27.3118 Y7.8942
G01 X27.2203 Y7.8267
G01 X27.1528 Y7.7352
G01 X27.0820 Y7.5116
G01 X26.9986 Y7.4384
G01 X26.9191 Y7.4197
G01 X26.4894 Y7.4196
G01 X26.4887 Y6.5906
G01 X26.4561 Y6.4914
G01 X26.3764 Y6.4226
G01 X26.2920 Y6.4036
G01 X24.1270 Y6.4036
G01 X24.0295 Y6.4299
G01 X23.9522 Y6.5102
G01 X23.9298 Y6.5958
G01 X23.9411 Y7.6078
G01 X23.9296 Y7.9276
G01 X21.5835 Y7.9277
G01 X21.4774 Y7.9609
G01 X21.4086 Y8.0406
G01 X21.3896 Y8.1250
G01 X21.3896 Y10.6905
G01 X21.4801 Y11.0138
G01 X21.4801 Y11.5922
G01 X21.4550 Y11.7182
G01 X21.3897 Y11.9119
G01 X21.3897 Y12.1985
G01 X21.4123 Y12.2827
G00 Z1.0000
G00 X22.3089 Y14.3695
G01 F500.00
G01 Z-0.0500
G01 F500.00
G01 X22.2414 Y14.2801
G01 X22.1244 Y14.2327
G01 X21.0127 Y14.2412
G01 X20.9195 Y14.2970
G01 X20.8628 Y14.3936
G01 X20.8637 Y14.8198
G01 X20.9358 Y14.9277
G01 X21.0556 Y14.9773
G01 X22.1673 Y14.9688
G01 X22.2630 Y14.9104
G01 X22.3208 Y14.8021
G01 X22.3259 Y14.4532
G01 X22.3089 Y14.3695
G00 Z1.0000
G00 X20.6503 Y18.6327
G01 F500.00
G01 Z-0.0500
G01 F500.00
G01 X20.7342 Y18.7198
G01 X20.8250 Y18.7424
G01 X26.6730 Y18.7424
G01 X26.7640 Y18.7187
G01 X26.8478 Y18.6358
G01 X26.8703 Y18.5489
G01 X26.8704 Y16.5070
G01 X26.8467 Y16.4160
G01 X26.7574 Y16.3286
G01 X26.6545 Y16.3096
G01 X26.6228 Y16.2359
G01 X26.5611 Y16.1742
G01 X26.4406 Y16.1367
G01 X25.3720 Y16.1403
G01 X25.3067 Y16.1630
G01 X25.2540 Y16.2020
G01 X25.1945 Y16.3096
G01 X24.6154 Y16.3103
G01 X24.5272 Y16.3364
G01 X24.4077 Y16.4227
G01 X24.2803 Y16.4626
G01 X23.2106 Y16.4609
G01 X23.1013 Y16.4227
G01 X22.9915 Y16.3426
G01 X22.9051 Y16.3112
G01 X22.3212 Y16.3096
G01 X22.2977 Y16.2466
G01 X22.2470 Y16.1847
G01 X22.1880 Y16.1486
G01 X22.1244 Y16.1327
G01 X21.0775 Y16.1316
G01 X21.0092 Y16.1423
G01 X20.9072 Y16.2105
G01 X20.8588 Y16.3096
G01 X20.8077 Y16.3117
G01 X20.7099 Y16.3472
G01 X20.6466 Y16.4226
G01 X20.6285 Y16.4953
G01 X20.6276 Y18.5450
G01 X20.6503 Y18.6327
G00 Z1.0000
G00 X27.0025 Y16.6889
G01 F500.00
G01 Z-0.0500
G01 F500.00
G01 X27.0946 Y16.7059
G01 X27.2265 Y16.6829
G01 X27.2267 Y17.2848
G01 X27.2754 Y17.4475
G01 X27.0972 Y17.4496
G01 X27.0025 Y17.4752
G01 X27.0025 Y16.6889
G00 Z1.0000
G00 X27.3813 Y17.3627
G01 F500.00
G01 Z-0.0500
G01 F500.00
G01 X27.4652 Y17.4498
G01 X27.5560 Y17.4724
G01 X40.5264 Y17.4717
G01 X40.6362 Y17.4300
G01 X40.6944 Y17.3594
G01 X40.7133 Y17.2789
G01 X40.7127 Y15.6076
G01 X40.6710 Y15.4978
G01 X40.5937 Y15.4366
G01 X40.4444 Y15.4206
G01 X40.4357 Y15.3404
G01 X40.3782 Y15.3020
G01 X37.8592 Y15.3016
G01 X37.8117 Y15.3206
G01 X37.7880 Y15.3678
G01 X37.7876 Y16.0556
G01 X27.5456 Y16.0563
G01 X27.4358 Y16.0980
G01 X27.3776 Y16.1686
G01 X27.3595 Y16.2413
G01 X27.3586 Y17.2750
G01 X27.3813 Y17.3627
G00 Z1.0000
G00 X28.9184 Y14.3745
G01 F500.00
G01 Z-0.0500
G01 F500.00
G01 X28.8509 Y14.2851
G01 X28.7339 Y14.2377
G01 X27.6222 Y14.2462
G01 X27.5290 Y14.3020
G01 X27.4723 Y14.3986
G01 X27.4732 Y14.8248
G01 X27.5453 Y14.9327
G01 X27.6651 Y14.9823
G01 X28.7768 Y14.9738
G01 X28.8725 Y14.9154
G01 X28.9303 Y14.8071
G01 X28.9354 Y14.4582
G01 X28.9184 Y14.3745
G00 Z1.0000
G00 X28.9644 Y7.2875
G01 F500.00
G01 Z-0.0500
G01 F500.00
G01 X28.8455 Y7.3137
G01 X28.8455 Y7.0166
G01 X29.2605 Y6.6017
G01 X29.6467 Y6.6017
G01 X29.5504 Y6.6985
G01 X29.4973 Y6.8266
G01 X29.4905 Y7.1960
G01 X29.5026 Y7.2875
G01 X28.9644 Y7.2875
G00 Z1.0000
G00 X28.9776 Y7.1554
G01 F500.00
G01 Z-0.0500
G01 F500.00
G01 X28.9776 Y7.0713
G01 X29.3152 Y6.7338
G01 X29.3863 Y6.7338
G01 X29.3595 Y6.8647
G01 X29.3584 Y7.1554
G01 X28.9776 Y7.1554
G00 Z1.0000
G00 X29.6396 Y7.2815
G01 F500.00
G01 Z-0.0500
G01 F500.00
G01 X29.7071 Y7.3709
G01 X29.8241 Y7.4183
G01 X30.9358 Y7.4098
G01 X31.0290 Y7.3540
G01 X31.0857 Y7.2574
G01 X31.0848 Y6.8312
G01 X31.0127 Y6.7233
G01 X30.8929 Y6.6737
G01 X29.7812 Y6.6822
G01 X29.6855 Y6.7406
G01 X29.6277 Y6.8489
G01 X29.6226 Y7.1978
G01 X29.6396 Y7.2815
G00 Z1.0000
G00 X29.6383 Y5.3781
G01 F500.00
G01 Z-0.0500
G01 F500.00
G01 X29.7071 Y5.4709
G01 X29.8241 Y5.5183
G01 X30.9358 Y5.5098
G01 X31.0290 Y5.4540
G01 X31.0857 Y5.3574
G01 X31.0848 Y4.9312
G01 X31.0127 Y4.8233
G01 X30.8929 Y4.7737
G01 X29.7812 Y4.7822
G01 X29.6855 Y4.8406
G01 X29.6277 Y4.9489
G01 X29.6226 Y5.2978
G01 X29.6383 Y5.3781
G00 Z1.0000
G00 X27.4619 Y6.5349
G01 F500.00
G01 Z-0.0500
G01 F500.00
G01 X27.3662 Y6.5582
G01 X27.2848 Y6.6070
G01 X27.2211 Y6.6773
G01 X27.1805 Y6.7631
G01 X27.1666 Y6.8552
G01 X27.1666 Y7.5588
G01 X27.1912 Y7.6808
G01 X27.2613 Y7.7857
G01 X27.3662 Y7.8558
G01 X27.4882 Y7.8804
G01 X28.4181 Y7.8791
G01 X28.5138 Y7.8558
G01 X28.5952 Y7.8070
G01 X28.6752 Y7.7094
G01 X28.7114 Y7.5923
G01 X28.7134 Y6.9619
G01 X29.2057 Y6.4696
G01 X31.6766 Y6.4696
G01 X31.7142 Y6.5951
G01 X31.7896 Y6.6584
G01 X31.8623 Y6.6765
G01 X31.9626 Y6.6629
G01 X32.0931 Y6.6189
G01 X33.1739 Y6.6189
G01 X33.3630 Y6.6763
G01 X33.5816 Y6.6774
G01 X33.5817 Y8.8965
G01 X33.6111 Y8.9967
G01 X33.6882 Y9.0678
G01 X33.7790 Y9.0904
G01 X37.2175 Y9.0903
G01 X37.3236 Y9.0571
G01 X37.3976 Y8.9637
G01 X37.4114 Y8.8930
G01 X37.4113 Y5.7085
G01 X37.3781 Y5.6024
G01 X37.2847 Y5.5284
G01 X37.2140 Y5.5146
G01 X33.3754 Y5.5146
G01 X33.1739 Y5.5731
G01 X32.0931 Y5.5731
G01 X31.9484 Y5.5230
G01 X31.8740 Y5.5146
G01 X31.7538 Y5.5570
G01 X31.6956 Y5.6276
G01 X31.6766 Y5.7224
G01 X29.0144 Y5.7242
G01 X28.9080 Y5.7509
G01 X28.8113 Y5.8096
G01 X28.0851 Y6.5336
G01 X27.4619 Y6.5349
G00 Z1.0000
G00 X27.0292 Y7.3078
G01 F500.00
G01 Z-0.0500
G01 F500.00
G01 X26.9254 Y7.2877
G01 X26.6215 Y7.2875
G01 X26.6157 Y6.5525
G01 X26.5833 Y6.4486
G01 X26.5516 Y6.3994
G01 X26.4702 Y6.3264
G01 X26.3972 Y6.2898
G01 X26.2920 Y6.2715
G01 X24.1172 Y6.2717
G01 X23.9746 Y6.3097
G01 X23.8981 Y6.3647
G01 X23.8037 Y6.2984
G01 X23.6845 Y6.2718
G01 X22.5111 Y6.2715
G01 X22.5341 Y6.1396
G01 X22.5171 Y6.0475
G01 X28.3844 Y6.0475
G01 X28.0304 Y6.4015
G01 X27.4353 Y6.4049
G01 X27.3065 Y6.4402
G01 X27.1752 Y6.5279
G01 X27.0883 Y6.6423
G01 X27.0432 Y6.7681
G01 X27.0292 Y7.3078
G00 Z1.0000
G00 X26.7536 Y7.1554
G01 F500.00
G01 Z-0.0500
G01 F500.00
G01 X26.7536 Y6.6010
G01 X26.7400 Y6.5059
G01 X26.7034 Y6.3937
G01 X26.6515 Y6.3129
G01 X26.5516 Y6.2223
G01 X26.4795 Y6.1796
G01 X28.0654 Y6.1796
G01 X27.9757 Y6.2694
G01 X27.4160 Y6.2742
G01 X27.2651 Y6.3141
G01 X27.1303 Y6.3926
G01 X27.0014 Y6.5305
G01 X26.9277 Y6.6864
G01 X26.9040 Y6.8159
G01 X26.9024 Y7.1554
G01 X26.7536 Y7.1554
G00 Z1.0000
G00 X23.9445 Y6.1796
G01 F500.00
G01 Z-0.0500
G01 F500.00
G01 X23.9000 Y6.1997
G01 X23.8613 Y6.1796
G01 X23.9445 Y6.1796
G00 Z1.0000
G00 X22.1743 Y5.8057
G01 F500.00
G01 Z-0.0500
G01 F500.00
G01 X22.2582 Y5.8928
G01 X22.3490 Y5.9154
G01 X28.5563 Y5.9147
G01 X28.6561 Y5.8817
G01 X28.7888 Y5.7542
G01 X28.8861 Y5.6980
G01 X28.9948 Y5.6689
G01 X29.4141 Y5.6682
G01 X29.5187 Y5.6313
G01 X29.5817 Y5.5566
G01 X29.5995 Y5.4603
G01 X29.5689 Y5.3239
G01 X29.5764 Y4.9165
G01 X29.6174 Y4.8328
G01 X29.6828 Y4.7674
G01 X29.7665 Y4.7264
G01 X29.8181 Y4.7189
G01 X30.8989 Y4.7189
G01 X30.9505 Y4.7264
G01 X31.0342 Y4.7674
G01 X31.0996 Y4.8328
G01 X31.1406 Y4.9165
G01 X31.1481 Y4.9681
G01 X31.1481 Y5.3239
G01 X31.1202 Y5.5098
G01 X31.1716 Y5.6082
G01 X31.2446 Y5.6562
G01 X31.3081 Y5.6687
G01 X31.4979 Y5.6688
G01 X31.5853 Y5.6452
G01 X31.7143 Y5.5141
G01 X31.7777 Y5.4786
G01 X31.8792 Y5.4559
G01 X32.1210 Y5.5194
G01 X33.1643 Y5.5186
G01 X33.3796 Y5.4559
G01 X37.2101 Y5.4559
G01 X37.2930 Y5.4700
G01 X37.4119 Y5.5523
G01 X37.4474 Y5.6157
G01 X37.4701 Y5.7172
G01 X37.4701 Y8.8891
G01 X37.4560 Y8.9720
G01 X37.4212 Y9.0373
G01 X37.2435 Y9.1937
G01 X37.2144 Y9.2971
G01 X37.2619 Y11.4374
G01 X37.2937 Y11.5404
G01 X37.3722 Y11.6097
G01 X37.4556 Y11.6303
G01 X40.5160 Y11.6304
G01 X40.6256 Y11.5971
G01 X40.6996 Y11.5037
G01 X40.7134 Y11.4330
G01 X40.7134 Y3.8070
G01 X40.6801 Y3.6974
G01 X40.5867 Y3.6234
G01 X40.5160 Y3.6096
G01 X37.3583 Y3.6097
G01 X37.2522 Y3.6429
G01 X37.1526 Y3.7666
G01 X37.0735 Y3.8021
G01 X34.5385 Y3.8021
G01 X34.4594 Y3.7666
G01 X34.3598 Y3.6429
G01 X34.2515 Y3.6096
G01 X22.3386 Y3.6103
G01 X22.2288 Y3.6520
G01 X22.1706 Y3.7226
G01 X22.1517 Y3.8031
G01 X22.1516 Y5.7180
G01 X22.1743 Y5.8057
G00 Z1.0000
G00 X17.6011 Y10.5818
G01 F500.00
G01 Z-0.0500
G01 F500.00
G01 X17.6045 Y10.4925
G01 X18.9358 Y10.4923
G01 X19.0985 Y10.4436
G01 X19.0985 Y10.6139
G01 X18.9745 Y10.5895
G01 X17.6011 Y10.5818
G00 Z1.0000
G00 X0.4278 Y20.7219
G01 F500.00
G01 Z-0.0500
G01 F500.00
G01 X0.4695 Y20.8317
G01 X0.5401 Y20.8899
G01 X0.6245 Y20.9089
G01 X41.2855 Y20.9089
G01 X41.3862 Y20.8811
G01 X41.4622 Y20.7991
G01 X41.4829 Y20.7115
G01 X41.4829 Y0.6245
G01 X41.4551 Y0.5238
G01 X41.3731 Y0.4478
G01 X41.2855 Y0.4271
G01 X0.6245 Y0.4271
G01 X0.5238 Y0.4549
G01 X0.4478 Y0.5369
G01 X0.4271 Y0.6245
G01 X0.4278 Y20.7219
G00 Z1.0000
G00 X0.2971 Y20.7407
G01 F500.00
G01 Z-0.0500
G01 F500.00
G01 X0.3332 Y20.8639
G01 X0.3819 Y20.9306
G01 X0.4903 Y21.0124
G01 X0.6245 Y21.0410
G01 X41.2855 Y21.0410
G01 X41.4467 Y20.9985
G01 X41.5013 Y20.9576
G01 X41.5772 Y20.8641
G01 X41.6150 Y20.7115
G01 X41.6150 Y0.6245
G01 X41.5725 Y0.4633
G01 X41.5316 Y0.4087
G01 X41.4381 Y0.3328
G01 X41.2855 Y0.2950
G01 X0.6245 Y0.2950
G01 X0.4633 Y0.3375
G01 X0.4087 Y0.3784
G01 X0.3328 Y0.4719
G01 X0.2950 Y0.6245
G01 X0.2971 Y20.7407
G00 Z1.0000
G00 X0.1663 Y20.7596
G01 F500.00
G01 Z-0.0500
G01 F500.00
G01 X0.2131 Y20.9188
G01 X0.2931 Y21.0284
G01 X0.4371 Y21.1334
G01 X0.6245 Y21.1731
G01 X41.2855 Y21.1731
G01 X41.3729 Y21.1616
G01 X41.5073 Y21.1159
G01 X41.5969 Y21.0488
G01 X41.6923 Y20.9290
G01 X41.7263 Y20.8430
G01 X41.7471 Y20.7115
G01 X41.7471 Y0.6245
G01 X41.7356 Y0.5371
G01 X41.6899 Y0.4027
G01 X41.6228 Y0.3131
G01 X41.5030 Y0.2177
G01 X41.4170 Y0.1837
G01 X41.2855 Y0.1629
G01 X0.6245 Y0.1629
G01 X0.5371 Y0.1744
G01 X0.4027 Y0.2201
G01 X0.3131 Y0.2872
G01 X0.2177 Y0.4070
G01 X0.1837 Y0.4930
G01 X0.1629 Y0.6245
G01 X0.1663 Y20.7596
G00 Z1.0000
M05
G00 Z1.0000
G00 Z15.00


