(G-code generated by FlatCAM Evo vUnstable - Version Date: 2023/6/31)

(Name: breakoutpcbs-Edge_Cuts_cutout_cnc)
(Type: G-code from Geometry)
(Units: MM)

(Created on Thursday, 02 January 2025 at 16:10)

(This preprocessor is the default preprocessor.)
(It is made to work with MACH3 compatible motion controllers.)

(TOOL DIAMETER: 2.0 mm)
(Feedrate_XY: 120.0 mm/min)
(Feedrate_Z: 60.0 mm/min)
(Feedrate rapids 1500.0 mm/min)

(Z_Cut: -1.4 mm)
(DepthPerCut: 0.6 mm <=>3 passes)
(Z_Move: 2.0 mm)
(Z Start: None mm)
(Z End: 15.0 mm)
(X,Y End: None mm)
(Steps per circle: 16)
(Preprocessor Geometry: default)

(X range:   -1.1250 ...   33.8910  mm)
(Y range:   -1.1250 ...   21.9530  mm)

(Spindle Speed: 10000.0 RPM)
G21
G90
G94

G01 F120.00

M5
G00 Z15.0000
G00 X0.0000 Y0.0000
T1
M6    
(MSG, Change to Tool Dia = 2.0000)
M0
G00 Z15.0000

M03 S10000.0
G4 P1.0
G01 F120.00
G00 X-1.1250 Y20.8280
G01 F60.00
G01 Z-0.6000
G01 F120.00
G01 X-1.1196 Y20.9383
G01 X-1.1034 Y21.0475
G01 X-1.0766 Y21.1546
G01 X-1.0394 Y21.2585
G01 X-0.9922 Y21.3583
G01 X-0.9354 Y21.4530
G01 X-0.8696 Y21.5417
G01 X-0.7955 Y21.6235
G01 X-0.7137 Y21.6976
G01 X-0.6250 Y21.7634
G01 X-0.5303 Y21.8202
G01 X-0.4305 Y21.8674
G01 X-0.3266 Y21.9046
G01 X-0.2195 Y21.9314
G01 X-0.0270 Y21.9527
G01 X32.7660 Y21.9530
G01 X32.9299 Y21.9410
G01 X33.0926 Y21.9046
G01 X33.2459 Y21.8455
G01 X33.3454 Y21.7923
G01 X33.4797 Y21.6976
G01 X33.5615 Y21.6235
G01 X33.6689 Y21.4991
G01 X33.7316 Y21.4053
G01 X33.8054 Y21.2585
G01 X33.8426 Y21.1546
G01 X33.8786 Y20.9943
G01 X33.8907 Y20.8550
G01 X33.8910 Y0.0000
G01 X33.8786 Y-0.1663
G01 X33.8426 Y-0.3266
G01 X33.7835 Y-0.4799
G01 X33.7303 Y-0.5794
G01 X33.6356 Y-0.7137
G01 X33.5224 Y-0.8327
G01 X33.4352 Y-0.9043
G01 X33.2963 Y-0.9922
G01 X33.1462 Y-1.0588
G01 X33.0382 Y-1.0916
G01 X32.8763 Y-1.1196
G01 X32.7660 Y-1.1250
G01 X0.0000 Y-1.1250
G01 X-0.1639 Y-1.1130
G01 X-0.3266 Y-1.0766
G01 X-0.4799 Y-1.0175
G01 X-0.5794 Y-0.9643
G01 X-0.7137 Y-0.8696
G01 X-0.7955 Y-0.7955
G01 X-0.9029 Y-0.6711
G01 X-0.9656 Y-0.5773
G01 X-1.0394 Y-0.4305
G01 X-1.0766 Y-0.3266
G01 X-1.1126 Y-0.1663
G01 X-1.1247 Y-0.0270
G01 X-1.1250 Y20.8280
G00 X-1.1250 Y20.8280
G01 F60.00
G01 Z-1.2000
G01 F120.00
G01 X-1.1247 Y-0.0270
G01 X-1.1126 Y-0.1663
G01 X-1.0766 Y-0.3266
G01 X-1.0394 Y-0.4305
G01 X-0.9656 Y-0.5773
G01 X-0.9029 Y-0.6711
G01 X-0.7955 Y-0.7955
G01 X-0.7137 Y-0.8696
G01 X-0.5794 Y-0.9643
G01 X-0.4799 Y-1.0175
G01 X-0.3266 Y-1.0766
G01 X-0.1639 Y-1.1130
G01 X0.0000 Y-1.1250
G01 X32.7660 Y-1.1250
G01 X32.8763 Y-1.1196
G01 X33.0382 Y-1.0916
G01 X33.1462 Y-1.0588
G01 X33.2963 Y-0.9922
G01 X33.4352 Y-0.9043
G01 X33.5224 Y-0.8327
G01 X33.6356 Y-0.7137
G01 X33.7303 Y-0.5794
G01 X33.7835 Y-0.4799
G01 X33.8426 Y-0.3266
G01 X33.8786 Y-0.1663
G01 X33.8910 Y0.0000
G01 X33.8907 Y20.8550
G01 X33.8786 Y20.9943
G01 X33.8426 Y21.1546
G01 X33.8054 Y21.2585
G01 X33.7316 Y21.4053
G01 X33.6689 Y21.4991
G01 X33.5615 Y21.6235
G01 X33.4797 Y21.6976
G01 X33.3454 Y21.7923
G01 X33.2459 Y21.8455
G01 X33.0926 Y21.9046
G01 X32.9299 Y21.9410
G01 X32.7660 Y21.9530
G01 X-0.0270 Y21.9527
G01 X-0.2195 Y21.9314
G01 X-0.3266 Y21.9046
G01 X-0.4305 Y21.8674
G01 X-0.5303 Y21.8202
G01 X-0.6250 Y21.7634
G01 X-0.7137 Y21.6976
G01 X-0.7955 Y21.6235
G01 X-0.8696 Y21.5417
G01 X-0.9354 Y21.4530
G01 X-0.9922 Y21.3583
G01 X-1.0394 Y21.2585
G01 X-1.0766 Y21.1546
G01 X-1.1034 Y21.0475
G01 X-1.1196 Y20.9383
G01 X-1.1250 Y20.8280
G00 X-1.1250 Y20.8280
G01 F60.00
G01 Z-1.4000
G01 F120.00
G01 X-1.1196 Y20.9383
G01 X-1.1034 Y21.0475
G01 X-1.0766 Y21.1546
G01 X-1.0394 Y21.2585
G01 X-0.9922 Y21.3583
G01 X-0.9354 Y21.4530
G01 X-0.8696 Y21.5417
G01 X-0.7955 Y21.6235
G01 X-0.7137 Y21.6976
G01 X-0.6250 Y21.7634
G01 X-0.5303 Y21.8202
G01 X-0.4305 Y21.8674
G01 X-0.3266 Y21.9046
G01 X-0.2195 Y21.9314
G01 X-0.0270 Y21.9527
G01 X32.7660 Y21.9530
G01 X32.9299 Y21.9410
G01 X33.0926 Y21.9046
G01 X33.2459 Y21.8455
G01 X33.3454 Y21.7923
G01 X33.4797 Y21.6976
G01 X33.5615 Y21.6235
G01 X33.6689 Y21.4991
G01 X33.7316 Y21.4053
G01 X33.8054 Y21.2585
G01 X33.8426 Y21.1546
G01 X33.8786 Y20.9943
G01 X33.8907 Y20.8550
G01 X33.8910 Y0.0000
G01 X33.8786 Y-0.1663
G01 X33.8426 Y-0.3266
G01 X33.7835 Y-0.4799
G01 X33.7303 Y-0.5794
G01 X33.6356 Y-0.7137
G01 X33.5224 Y-0.8327
G01 X33.4352 Y-0.9043
G01 X33.2963 Y-0.9922
G01 X33.1462 Y-1.0588
G01 X33.0382 Y-1.0916
G01 X32.8763 Y-1.1196
G01 X32.7660 Y-1.1250
G01 X0.0000 Y-1.1250
G01 X-0.1639 Y-1.1130
G01 X-0.3266 Y-1.0766
G01 X-0.4799 Y-1.0175
G01 X-0.5794 Y-0.9643
G01 X-0.7137 Y-0.8696
G01 X-0.7955 Y-0.7955
G01 X-0.9029 Y-0.6711
G01 X-0.9656 Y-0.5773
G01 X-1.0394 Y-0.4305
G01 X-1.0766 Y-0.3266
G01 X-1.1126 Y-0.1663
G01 X-1.1247 Y-0.0270
G01 X-1.1250 Y20.8280
G00 Z2.0000
M05
G00 Z2.0000
G00 Z15.00


