(G-code generated by FlatCAM Evo vUnstable - Version Date: 2023/6/31)

(Name: breakoutpcbs-F_Cu.gbr_iso_combined_cnc)
(Type: G-code from Geometry)
(Units: MM)

(Created on Thursday, 02 January 2025 at 16:10)

(This preprocessor is the default preprocessor.)
(It is made to work with MACH3 compatible motion controllers.)

(TOOL DIAMETER: 0.1468 mm)
(Feedrate_XY: 500.0 mm/min)
(Feedrate_Z: 500.0 mm/min)
(Feedrate rapids 1500.0 mm/min)

(Z_Cut: -0.05 mm)
(Z_Move: 1.0 mm)
(Z Start: None mm)
(Z End: 15.0 mm)
(X,Y End: None mm)
(Steps per circle: 16)
(Preprocessor Geometry: default)

(X range:    0.1629 ...   32.6031  mm)
(Y range:    0.1629 ...   20.6651  mm)

(Spindle Speed: 10000.0 RPM)
G21
G90
G94

G01 F500.00

M5
G00 Z15.0000
G00 X0.0000 Y0.0000
T1
M6    
(MSG, Change to Tool Dia = 0.1468)
M0
G00 Z15.0000

M03 S10000.0
G4 P1.0
G01 F500.00
G00 X1.4060 Y7.4110
G01 F500.00
G01 Z-0.0500
G01 F500.00
G01 X1.4883 Y7.2921
G01 X1.5512 Y7.2569
G01 X1.6533 Y7.2339
G01 X4.0058 Y7.2318
G01 X4.0981 Y7.2006
G01 X4.1685 Y7.1175
G01 X4.1858 Y7.0404
G01 X4.1859 Y6.7319
G01 X4.2000 Y6.6490
G01 X4.2603 Y6.5485
G01 X4.3293 Y6.4794
G01 X4.4130 Y6.4384
G01 X4.4646 Y6.4309
G01 X5.5195 Y6.4306
G01 X5.6192 Y6.3996
G01 X5.6853 Y6.3273
G01 X5.7099 Y6.2335
G01 X5.7099 Y1.3979
G01 X5.7240 Y1.3150
G01 X5.7588 Y1.2497
G01 X5.8063 Y1.1961
G01 X5.9237 Y1.1447
G01 X14.6041 Y1.1379
G01 X14.6870 Y1.1520
G01 X14.8059 Y1.2343
G01 X14.8414 Y1.2977
G01 X14.8641 Y1.3993
G01 X14.8641 Y2.9201
G01 X14.8500 Y3.0030
G01 X14.8152 Y3.0683
G01 X14.7677 Y3.1219
G01 X14.6503 Y3.1733
G01 X7.9478 Y3.1801
G01 X7.8458 Y3.2096
G01 X7.7767 Y3.2837
G01 X7.7521 Y3.3775
G01 X7.7521 Y5.1840
G01 X7.6899 Y5.4244
G01 X7.6886 Y6.1525
G01 X7.7016 Y6.2429
G01 X7.7459 Y6.3716
G01 X7.7528 Y6.5389
G01 X7.7799 Y6.6292
G01 X7.8619 Y6.7052
G01 X7.9456 Y6.7258
G01 X9.5241 Y6.7259
G01 X9.6070 Y6.7400
G01 X9.7171 Y6.8137
G01 X9.7614 Y6.8857
G01 X9.7841 Y6.9873
G01 X9.7844 Y7.3284
G01 X9.8136 Y7.4251
G01 X9.8881 Y7.4945
G01 X10.0040 Y7.5574
G01 X10.0482 Y7.6150
G01 X10.0976 Y7.7760
G01 X10.1460 Y7.8485
G01 X10.2185 Y7.8969
G01 X10.3004 Y7.9138
G01 X10.6511 Y7.9088
G01 X10.7311 Y7.8742
G01 X10.7992 Y7.7989
G01 X10.8274 Y7.6923
G01 X10.8365 Y6.6490
G01 X10.9188 Y6.5301
G01 X11.1745 Y6.3959
G01 X11.6335 Y6.3959
G01 X11.7863 Y6.4794
G01 X11.9008 Y6.5037
G01 X11.9531 Y6.4935
G01 X12.1245 Y6.3959
G01 X12.5319 Y6.3884
G01 X12.5835 Y6.3959
G01 X12.7659 Y6.4712
G01 X13.4836 Y6.4727
G01 X13.6249 Y6.5241
G01 X13.7047 Y6.5362
G01 X13.9234 Y6.4719
G01 X17.2022 Y6.4719
G01 X17.2997 Y6.4456
G01 X17.3786 Y6.3627
G01 X17.3976 Y6.2673
G01 X17.3967 Y5.7418
G01 X17.4439 Y5.6287
G01 X17.5225 Y5.5338
G01 X17.5481 Y5.4468
G01 X17.5446 Y5.0849
G01 X17.5132 Y5.0074
G01 X17.4474 Y4.9375
G01 X17.4169 Y4.8793
G01 X17.3939 Y4.7767
G01 X17.3991 Y4.5946
G01 X17.4428 Y4.4962
G01 X17.4903 Y4.4426
G01 X17.5871 Y4.3940
G01 X17.6553 Y4.3844
G01 X26.8319 Y4.3883
G01 X26.9443 Y4.4333
G01 X26.9979 Y4.4808
G01 X27.0334 Y4.5442
G01 X27.0561 Y4.6458
G01 X27.0594 Y6.2540
G01 X27.1021 Y6.3456
G01 X27.1659 Y6.3957
G01 X27.2457 Y6.4160
G01 X27.3495 Y6.4139
G01 X27.4507 Y6.3740
G01 X27.5089 Y6.3034
G01 X27.5278 Y6.2229
G01 X27.5258 Y3.3472
G01 X27.4855 Y3.2443
G01 X27.4181 Y3.1878
G01 X27.3422 Y3.1680
G01 X26.3225 Y3.1671
G01 X26.2434 Y3.1316
G01 X26.2079 Y3.0525
G01 X26.2079 Y2.0275
G01 X26.2434 Y1.9484
G01 X26.3225 Y1.9129
G01 X29.4975 Y1.9129
G01 X29.5766 Y1.9484
G01 X29.6247 Y2.0189
G01 X29.6916 Y2.0754
G01 X29.7749 Y2.0980
G01 X31.1239 Y2.1023
G01 X31.2363 Y2.1473
G01 X31.2811 Y2.1862
G01 X31.3413 Y2.3122
G01 X31.3481 Y7.4851
G01 X31.2818 Y7.7258
G01 X31.3481 Y7.9478
G01 X31.3442 Y12.0444
G01 X31.2992 Y12.1568
G01 X31.2517 Y12.2104
G01 X31.1883 Y12.2459
G01 X31.0867 Y12.2686
G01 X28.2660 Y12.2687
G01 X28.1628 Y12.2999
G01 X28.0911 Y12.3816
G01 X28.0721 Y12.4660
G01 X28.0721 Y19.1761
G01 X28.0580 Y19.2590
G01 X28.0232 Y19.3243
G01 X27.9757 Y19.3779
G01 X27.8583 Y19.4293
G01 X26.5081 Y19.4322
G01 X26.3957 Y19.3872
G01 X26.3509 Y19.3483
G01 X26.2907 Y19.2223
G01 X26.2832 Y12.5111
G01 X26.2506 Y12.4119
G01 X26.1607 Y12.3389
G01 X26.0885 Y12.3241
G01 X25.4915 Y12.3205
G01 X25.3808 Y12.2769
G01 X25.3265 Y12.2301
G01 X25.2903 Y12.1671
G01 X25.2664 Y12.0659
G01 X25.2451 Y10.4146
G01 X25.2139 Y10.3253
G01 X25.1442 Y10.2625
G01 X24.8829 Y10.2085
G01 X24.7921 Y10.1402
G01 X24.7436 Y10.0434
G01 X24.7338 Y8.3985
G01 X24.7026 Y8.2953
G01 X24.6175 Y8.2220
G01 X24.5385 Y8.2046
G01 X23.9185 Y8.2049
G01 X23.8188 Y8.2359
G01 X23.7455 Y8.3210
G01 X23.7281 Y8.4020
G01 X23.7281 Y10.2306
G01 X23.7140 Y10.3135
G01 X23.6403 Y10.4236
G01 X23.5683 Y10.4679
G01 X23.4667 Y10.4906
G01 X22.6432 Y10.4906
G01 X22.5539 Y10.5143
G01 X22.4702 Y10.5971
G01 X22.4440 Y10.6830
G01 X22.3617 Y10.8019
G01 X22.2983 Y10.8374
G01 X22.1004 Y10.8951
G01 X22.0273 Y10.9498
G01 X21.9708 Y11.0261
G01 X21.9326 Y11.1767
G01 X21.9342 Y12.1102
G01 X21.9852 Y12.2551
G01 X22.1043 Y12.3911
G01 X22.1338 Y12.4575
G01 X22.1397 Y12.5298
G01 X22.1288 Y12.6007
G01 X22.0946 Y12.6648
G01 X21.9796 Y12.8082
G01 X21.9700 Y12.9121
G01 X22.0284 Y13.0219
G01 X22.1108 Y13.0677
G01 X22.1584 Y13.0757
G01 X25.0181 Y13.0759
G01 X25.1010 Y13.0900
G01 X25.2199 Y13.1723
G01 X25.2554 Y13.2357
G01 X25.2781 Y13.3373
G01 X25.2742 Y16.1639
G01 X25.2292 Y16.2763
G01 X25.1817 Y16.3299
G01 X25.1183 Y16.3654
G01 X25.0167 Y16.3881
G01 X22.6798 Y16.3881
G01 X22.5613 Y16.4305
G01 X22.5031 Y16.5011
G01 X22.4841 Y16.5835
G01 X22.4841 Y18.9221
G01 X22.4700 Y19.0050
G01 X22.3877 Y19.1239
G01 X22.3243 Y19.1594
G01 X22.2227 Y19.1821
G01 X6.2239 Y19.1821
G01 X6.1410 Y19.1680
G01 X6.0221 Y19.0857
G01 X5.9866 Y19.0223
G01 X5.9639 Y18.9208
G01 X5.9639 Y16.3298
G01 X5.9263 Y16.2164
G01 X5.8509 Y16.1531
G01 X5.7685 Y16.1341
G01 X3.6839 Y16.1341
G01 X3.6010 Y16.1200
G01 X3.5357 Y16.0852
G01 X3.4821 Y16.0377
G01 X3.4466 Y15.9743
G01 X3.4239 Y15.8727
G01 X3.4239 Y12.5198
G01 X3.3906 Y12.4119
G01 X3.2796 Y12.3314
G01 X3.0646 Y12.3241
G01 X2.7868 Y12.4271
G01 X1.7671 Y12.4254
G01 X1.6578 Y12.3872
G01 X1.5037 Y12.2752
G01 X1.4501 Y12.2277
G01 X1.4146 Y12.1643
G01 X1.3919 Y12.0627
G01 X1.3919 Y7.4939
G01 X1.4060 Y7.4110
G00 Z1.0000
G00 X5.7913 Y6.4232
G01 F500.00
G01 Z-0.0500
G01 F500.00
G01 X5.8961 Y6.5448
G01 X5.9371 Y6.6285
G01 X5.9446 Y6.6801
G01 X5.9371 Y7.0875
G01 X5.8961 Y7.1712
G01 X5.8156 Y7.2547
G01 X5.7759 Y7.3288
G01 X5.7687 Y7.3766
G01 X5.7687 Y8.5775
G01 X5.8015 Y8.6831
G01 X5.8476 Y8.7319
G01 X6.8324 Y9.4704
G01 X6.9171 Y9.5042
G01 X7.0016 Y9.5153
G01 X7.0436 Y9.5434
G01 X7.1449 Y9.7049
G01 X9.5786 Y11.5302
G01 X9.5793 Y12.0784
G01 X9.6081 Y12.1717
G01 X9.6793 Y12.2386
G01 X9.7760 Y12.2654
G01 X13.8460 Y12.2654
G01 X13.9497 Y12.2359
G01 X14.0244 Y12.1524
G01 X14.0434 Y12.0680
G01 X14.0433 Y11.4921
G01 X13.9849 Y11.2833
G01 X13.9849 Y10.4817
G01 X14.0294 Y10.3391
G01 X14.0343 Y10.2554
G01 X13.9631 Y10.1311
G01 X13.8884 Y10.0930
G01 X13.8403 Y10.0866
G01 X9.6765 Y10.0866
G01 X7.6934 Y8.5993
G01 X7.6922 Y8.4033
G01 X7.6349 Y8.2033
G01 X7.6349 Y7.4017
G01 X7.6934 Y7.1884
G01 X7.6933 Y6.4121
G01 X7.6349 Y6.2033
G01 X7.6349 Y5.4017
G01 X7.6934 Y5.1884
G01 X7.6934 Y3.1214
G01 X14.6253 Y3.1193
G01 X14.7282 Y3.0790
G01 X14.7864 Y3.0084
G01 X14.8053 Y2.9279
G01 X14.8054 Y1.3940
G01 X14.7759 Y1.2903
G01 X14.6924 Y1.2156
G01 X14.6080 Y1.1966
G01 X5.9660 Y1.1966
G01 X5.8623 Y1.2261
G01 X5.7876 Y1.3096
G01 X5.7686 Y1.3940
G01 X5.7686 Y6.3355
G01 X5.7913 Y6.4232
G00 Z1.0000
G00 X7.7471 Y7.2246
G01 F500.00
G01 Z-0.0500
G01 F500.00
G01 X7.6886 Y7.4507
G01 X7.6899 Y8.1806
G01 X7.7356 Y8.3266
G01 X7.7542 Y8.4886
G01 X7.7850 Y8.5803
G01 X7.8311 Y8.6292
G01 X9.6462 Y9.9904
G01 X9.7605 Y10.0279
G01 X11.7675 Y10.0278
G01 X11.8678 Y9.9984
G01 X11.9386 Y9.9217
G01 X11.9602 Y9.8128
G01 X11.9529 Y8.9577
G01 X12.0113 Y8.7489
G01 X12.0113 Y7.9657
G01 X11.9269 Y7.7184
G01 X11.9262 Y6.7176
G01 X11.8936 Y6.6184
G01 X11.8203 Y6.5532
G01 X11.7319 Y6.5307
G01 X11.6751 Y6.4778
G01 X11.5976 Y6.4464
G01 X11.2321 Y6.4432
G01 X11.1487 Y6.4685
G01 X11.0761 Y6.5307
G01 X10.9748 Y6.5601
G01 X10.9079 Y6.6313
G01 X10.8812 Y6.7241
G01 X10.8736 Y7.7700
G01 X10.8326 Y7.8537
G01 X10.7672 Y7.9191
G01 X10.6835 Y7.9601
G01 X10.2245 Y7.9601
G01 X10.1408 Y7.9191
G01 X10.0754 Y7.8537
G01 X10.0344 Y7.7700
G01 X10.0219 Y7.6987
G01 X9.9727 Y7.6071
G01 X9.8801 Y7.5530
G01 X9.7254 Y7.5466
G01 X9.7233 Y6.9647
G01 X9.6830 Y6.8618
G01 X9.6124 Y6.8036
G01 X9.5436 Y6.7863
G01 X7.9495 Y6.7846
G01 X7.8618 Y6.8073
G01 X7.8293 Y6.8270
G01 X7.7659 Y6.9113
G01 X7.7471 Y7.2246
G00 Z1.0000
G00 X10.1408 Y4.1619
G01 F500.00
G01 Z-0.0500
G01 F500.00
G01 X10.2245 Y4.1209
G01 X10.2761 Y4.1134
G01 X10.6835 Y4.1209
G01 X10.7672 Y4.1619
G01 X10.8326 Y4.2273
G01 X10.8736 Y4.3110
G01 X10.8811 Y5.4434
G01 X10.8736 Y5.4950
G01 X10.8326 Y5.5787
G01 X10.7672 Y5.6441
G01 X10.6835 Y5.6851
G01 X10.2245 Y5.6851
G01 X10.1408 Y5.6441
G01 X10.0754 Y5.5787
G01 X10.0344 Y5.4950
G01 X10.0269 Y4.3626
G01 X10.0344 Y4.3110
G01 X10.0754 Y4.2273
G01 X10.1408 Y4.1619
G00 Z1.0000
G00 X10.2185 Y4.1841
G01 F500.00
G01 Z-0.0500
G01 F500.00
G01 X10.1291 Y4.2516
G01 X10.0817 Y4.3686
G01 X10.0902 Y5.4803
G01 X10.1460 Y5.5735
G01 X10.2426 Y5.6302
G01 X10.6688 Y5.6293
G01 X10.7767 Y5.5572
G01 X10.8263 Y5.4374
G01 X10.8178 Y4.3257
G01 X10.7594 Y4.2300
G01 X10.6511 Y4.1722
G01 X10.3022 Y4.1671
G01 X10.2185 Y4.1841
G00 Z1.0000
G00 X12.0408 Y4.1619
G01 F500.00
G01 Z-0.0500
G01 F500.00
G01 X12.1245 Y4.1209
G01 X12.1761 Y4.1134
G01 X12.5835 Y4.1209
G01 X12.6672 Y4.1619
G01 X12.7326 Y4.2273
G01 X12.7736 Y4.3110
G01 X12.7811 Y5.4434
G01 X12.7736 Y5.4950
G01 X12.7326 Y5.5787
G01 X12.6672 Y5.6441
G01 X12.5835 Y5.6851
G01 X12.1245 Y5.6851
G01 X12.0408 Y5.6441
G01 X11.9754 Y5.5787
G01 X11.9344 Y5.4950
G01 X11.9269 Y4.3626
G01 X11.9344 Y4.3110
G01 X11.9754 Y4.2273
G01 X12.0408 Y4.1619
G00 Z1.0000
G00 X12.1185 Y4.1841
G01 F500.00
G01 Z-0.0500
G01 F500.00
G01 X12.0291 Y4.2516
G01 X11.9817 Y4.3686
G01 X11.9902 Y5.4803
G01 X12.0460 Y5.5735
G01 X12.1426 Y5.6302
G01 X12.5688 Y5.6293
G01 X12.6767 Y5.5572
G01 X12.7263 Y5.4374
G01 X12.7178 Y4.3257
G01 X12.6594 Y4.2300
G01 X12.5511 Y4.1722
G01 X12.2022 Y4.1671
G01 X12.1185 Y4.1841
G00 Z1.0000
G00 X13.7476 Y6.6295
G01 F500.00
G01 Z-0.0500
G01 F500.00
G01 X13.6786 Y6.9445
G01 X13.6848 Y7.7076
G01 X13.7168 Y7.7969
G01 X13.7987 Y7.9226
G01 X13.8484 Y8.1500
G01 X13.9418 Y8.2339
G01 X14.0195 Y8.2499
G01 X17.6261 Y8.2499
G01 X17.7090 Y8.2640
G01 X17.7743 Y8.2988
G01 X17.8279 Y8.3463
G01 X17.8634 Y8.4097
G01 X17.8861 Y8.5112
G01 X17.8868 Y10.0394
G01 X17.9285 Y10.1492
G01 X17.9991 Y10.2074
G01 X18.0796 Y10.2263
G01 X19.4600 Y10.2263
G01 X19.5602 Y10.1969
G01 X19.6271 Y10.1257
G01 X19.6539 Y10.0290
G01 X19.6539 Y8.2004
G01 X19.6680 Y8.1175
G01 X19.7028 Y8.0522
G01 X19.7503 Y7.9986
G01 X19.8137 Y7.9631
G01 X19.9152 Y7.9404
G01 X22.9752 Y7.9284
G01 X23.0550 Y7.9404
G01 X23.4681 Y7.9404
G01 X23.5510 Y7.9545
G01 X23.6163 Y7.9893
G01 X23.7460 Y8.1178
G01 X23.8333 Y8.1447
G01 X24.7420 Y8.1459
G01 X24.8622 Y8.1035
G01 X24.9204 Y8.0329
G01 X24.9393 Y7.9524
G01 X24.9387 Y6.7176
G01 X24.8970 Y6.6078
G01 X24.8264 Y6.5496
G01 X24.7459 Y6.5307
G01 X23.7072 Y6.5313
G01 X23.6135 Y6.5604
G01 X23.5276 Y6.6571
G01 X23.4485 Y6.6926
G01 X21.9235 Y6.6926
G01 X21.8444 Y6.6571
G01 X21.7421 Y6.5517
G01 X21.6543 Y6.5306
G01 X19.5186 Y6.5307
G01 X19.4242 Y6.5571
G01 X19.3637 Y6.6071
G01 X19.2800 Y6.6481
G01 X19.2284 Y6.6556
G01 X17.9976 Y6.6556
G01 X17.9460 Y6.6481
G01 X17.7623 Y6.5408
G01 X17.7040 Y6.5306
G01 X13.9147 Y6.5307
G01 X13.8160 Y6.5592
G01 X13.7476 Y6.6295
G00 Z1.0000
G00 X12.0066 Y9.0067
G01 F500.00
G01 Z-0.0500
G01 F500.00
G01 X12.0195 Y9.8573
G01 X12.0552 Y9.9480
G01 X12.1311 Y10.0093
G01 X12.2033 Y10.0272
G01 X13.8385 Y10.0279
G01 X13.9851 Y10.0763
G01 X14.0744 Y10.1876
G01 X14.0924 Y10.2702
G01 X14.0803 Y10.3735
G01 X14.0399 Y10.5044
G01 X14.0386 Y11.2343
G01 X14.0619 Y11.3529
G01 X14.1359 Y11.4949
G01 X14.2611 Y11.5532
G01 X15.3661 Y11.5519
G01 X15.4490 Y11.5660
G01 X15.5679 Y11.6482
G01 X15.6095 Y11.7210
G01 X15.6686 Y11.7799
G01 X15.6496 Y14.3560
G01 X15.6783 Y14.4565
G01 X15.7489 Y14.5239
G01 X15.8469 Y14.5514
G01 X17.6335 Y14.5513
G01 X17.7337 Y14.5219
G01 X17.8006 Y14.4507
G01 X17.8274 Y14.3540
G01 X17.8274 Y8.5060
G01 X17.7979 Y8.4023
G01 X17.7267 Y8.3354
G01 X17.6300 Y8.3086
G01 X13.7634 Y8.3086
G01 X13.7613 Y8.0039
G01 X13.7366 Y7.9226
G01 X13.6648 Y7.8227
G01 X13.6249 Y7.6953
G01 X13.6249 Y6.8937
G01 X13.6582 Y6.7831
G01 X13.6631 Y6.6994
G01 X13.6083 Y6.5881
G01 X13.5237 Y6.5397
G01 X13.4762 Y6.5309
G01 X12.6819 Y6.5306
G01 X12.6124 Y6.4703
G01 X12.5295 Y6.4436
G01 X12.1426 Y6.4508
G01 X12.0799 Y6.4797
G01 X12.0291 Y6.5266
G01 X11.9913 Y6.5972
G01 X11.9807 Y6.6619
G01 X11.9814 Y7.7088
G01 X11.9976 Y7.7760
G01 X12.0467 Y7.8704
G01 X12.0701 Y7.9744
G01 X12.0701 Y8.7400
G01 X12.0066 Y9.0067
G00 Z1.0000
G00 X13.6675 Y14.1755
G01 F500.00
G01 Z-0.0500
G01 F500.00
G01 X13.7310 Y14.1755
G01 X13.6675 Y14.1978
G01 X13.6675 Y14.1755
G00 Z1.0000
G00 X15.3884 Y14.3986
G01 F500.00
G01 Z-0.0500
G01 F500.00
G01 X15.4340 Y14.5582
G01 X15.4937 Y14.6484
G01 X15.0626 Y14.6484
G01 X15.0418 Y14.4604
G01 X14.9755 Y14.3076
G01 X15.3856 Y14.3073
G01 X15.3884 Y14.3986
G00 Z1.0000
G00 X13.5396 Y15.9554
G01 F500.00
G01 Z-0.0500
G01 F500.00
G01 X13.5941 Y16.1411
G01 X13.5942 Y16.4380
G01 X13.6178 Y16.5255
G01 X13.7007 Y16.6093
G01 X13.7798 Y16.6310
G01 X17.7218 Y16.6298
G01 X17.8247 Y16.5895
G01 X17.8829 Y16.5189
G01 X17.9010 Y16.4462
G01 X17.8998 Y15.0927
G01 X17.8595 Y14.9898
G01 X17.7889 Y14.9316
G01 X17.7084 Y14.9127
G01 X14.7984 Y14.9126
G01 X14.7854 Y14.5246
G01 X14.7418 Y14.4324
G01 X14.6516 Y14.3442
G01 X14.5031 Y14.2929
G01 X13.7869 Y14.2978
G01 X13.6944 Y14.3316
G01 X13.6024 Y14.4071
G01 X13.5512 Y14.4912
G01 X13.5282 Y14.5833
G01 X13.5266 Y15.8668
G01 X13.5396 Y15.9554
G00 Z1.0000
G00 X10.1094 Y14.2703
G01 F500.00
G01 Z-0.0500
G01 F500.00
G01 X10.0838 Y14.1755
G01 X10.2593 Y14.1755
G01 X10.2268 Y14.2428
G01 X10.2088 Y14.3370
G01 X10.2085 Y15.7965
G01 X10.1115 Y15.8018
G01 X10.1094 Y14.2703
G00 Z1.0000
G00 X6.0463 Y19.0170
G01 F500.00
G01 Z-0.0500
G01 F500.00
G01 X6.1292 Y19.1008
G01 X6.2200 Y19.1234
G01 X22.2453 Y19.1213
G01 X22.3482 Y19.0810
G01 X22.4064 Y19.0104
G01 X22.4253 Y18.9299
G01 X22.4254 Y16.5076
G01 X22.3929 Y16.3991
G01 X22.2781 Y16.2917
G01 X22.2426 Y16.2283
G01 X22.2199 Y16.1267
G01 X22.2178 Y15.0442
G01 X22.1775 Y14.9413
G01 X22.1069 Y14.8831
G01 X22.0264 Y14.8642
G01 X20.3920 Y14.8642
G01 X20.2918 Y14.8936
G01 X20.2207 Y14.9707
G01 X20.1981 Y15.0615
G01 X20.1981 Y17.9061
G01 X20.1840 Y17.9890
G01 X20.1492 Y18.0543
G01 X20.1017 Y18.1079
G01 X20.0383 Y18.1434
G01 X19.9367 Y18.1661
G01 X12.0659 Y18.1661
G01 X11.9830 Y18.1520
G01 X11.8641 Y18.0697
G01 X11.8286 Y18.0063
G01 X11.8059 Y17.9048
G01 X11.8059 Y16.1411
G01 X11.8733 Y15.8686
G01 X11.8734 Y14.6150
G01 X11.8604 Y14.5246
G01 X11.7776 Y14.2498
G01 X11.6891 Y14.1683
G01 X11.6119 Y14.1507
G01 X10.5207 Y14.1527
G01 X10.4178 Y14.1930
G01 X10.3596 Y14.2636
G01 X10.3407 Y14.3441
G01 X10.3406 Y15.9286
G01 X10.1541 Y15.9287
G01 X10.0667 Y15.9523
G01 X9.9417 Y16.0759
G01 X9.8783 Y16.1114
G01 X9.7767 Y16.1341
G01 X7.5490 Y16.1341
G01 X7.4427 Y16.1113
G01 X7.2582 Y15.9521
G01 X7.1778 Y15.9296
G01 X6.2165 Y15.9287
G01 X6.0998 Y15.9710
G01 X6.0416 Y16.0416
G01 X6.0226 Y16.1260
G01 X6.0226 Y18.9260
G01 X6.0463 Y19.0170
G00 Z1.0000
G00 X3.5063 Y15.9690
G01 F500.00
G01 Z-0.0500
G01 F500.00
G01 X3.5892 Y16.0528
G01 X3.6761 Y16.0753
G01 X5.8548 Y16.0747
G01 X5.9473 Y16.0463
G01 X6.0603 Y15.9281
G01 X6.1777 Y15.8767
G01 X7.1470 Y15.8698
G01 X7.2313 Y15.8472
G01 X7.2635 Y15.8277
G01 X7.3762 Y15.6895
G01 X7.5392 Y15.5781
G01 X7.6053 Y15.4791
G01 X7.6301 Y15.3801
G01 X7.6314 Y14.6502
G01 X7.6081 Y14.5316
G01 X7.5392 Y14.4259
G01 X7.4572 Y14.3652
G01 X7.3675 Y14.3342
G01 X7.1573 Y14.3196
G01 X7.0917 Y14.2847
G01 X7.0381 Y14.2372
G01 X6.9867 Y14.1198
G01 X6.9799 Y12.9704
G01 X7.0253 Y12.6964
G01 X6.9796 Y12.4338
G01 X6.9321 Y12.3328
G01 X6.7122 Y12.1740
G01 X6.5473 Y12.1139
G01 X5.9770 Y12.1016
G01 X5.8603 Y12.1131
G01 X5.7480 Y12.1472
G01 X5.5049 Y12.3011
G01 X5.4024 Y12.3241
G01 X3.6800 Y12.3241
G01 X3.5598 Y12.3665
G01 X3.5016 Y12.4371
G01 X3.4826 Y12.5215
G01 X3.4826 Y15.8780
G01 X3.5063 Y15.9690
G00 Z1.0000
G00 X1.4506 Y12.0680
G01 F500.00
G01 Z-0.0500
G01 F500.00
G01 X1.4956 Y12.1905
G01 X1.6563 Y12.3189
G01 X1.7765 Y12.3678
G01 X2.7360 Y12.3734
G01 X2.8631 Y12.3473
G01 X2.9768 Y12.2654
G01 X5.4181 Y12.2647
G01 X5.5118 Y12.2356
G01 X5.6681 Y12.1221
G01 X5.7868 Y12.0730
G01 X5.9128 Y12.0479
G01 X6.4912 Y12.0479
G01 X6.6172 Y12.0730
G01 X6.7359 Y12.1221
G01 X6.9380 Y12.2552
G01 X7.0386 Y12.2654
G01 X7.0394 Y12.4440
G01 X7.0791 Y12.6358
G01 X7.0791 Y12.7642
G01 X7.0386 Y12.9668
G01 X7.0386 Y14.0775
G01 X7.0623 Y14.1685
G01 X7.1583 Y14.2589
G01 X7.3769 Y14.2766
G01 X7.4862 Y14.3148
G01 X7.5777 Y14.3823
G01 X7.6452 Y14.4738
G01 X7.6834 Y14.5831
G01 X7.6834 Y15.4209
G01 X7.6452 Y15.5302
G01 X7.5777 Y15.6217
G01 X7.3828 Y15.7652
G01 X7.3474 Y15.8634
G01 X7.3789 Y15.9835
G01 X7.4482 Y16.0504
G01 X7.5410 Y16.0753
G01 X9.7820 Y16.0754
G01 X9.8857 Y16.0459
G01 X9.9604 Y15.9624
G01 X9.9794 Y15.8780
G01 X9.9794 Y14.2995
G01 X9.9461 Y14.1899
G01 X9.8664 Y14.1211
G01 X9.7859 Y14.1022
G01 X8.7281 Y14.0982
G01 X8.6157 Y14.0532
G01 X8.5621 Y14.0057
G01 X8.5266 Y13.9423
G01 X8.5039 Y13.8407
G01 X8.5038 Y12.0929
G01 X8.4778 Y11.9994
G01 X8.4321 Y11.9441
G01 X7.3651 Y11.0914
G01 X7.2711 Y11.0552
G01 X6.9631 Y11.0513
G01 X6.8500 Y11.0041
G01 X6.7059 Y10.9006
G01 X6.5473 Y10.8439
G01 X6.4270 Y10.8316
G01 X5.8603 Y10.8431
G01 X5.6949 Y10.9023
G01 X5.5049 Y11.0311
G01 X5.4024 Y11.0541
G01 X4.4459 Y11.0541
G01 X4.3630 Y11.0400
G01 X4.2441 Y10.9577
G01 X4.2086 Y10.8943
G01 X4.1859 Y10.7927
G01 X4.1858 Y7.4865
G01 X4.1526 Y7.3804
G01 X4.0729 Y7.3116
G01 X3.9885 Y7.2926
G01 X1.6445 Y7.2927
G01 X1.5384 Y7.3259
G01 X1.4696 Y7.4056
G01 X1.4506 Y7.4900
G01 X1.4506 Y12.0680
G00 Z1.0000
G00 X4.2673 Y10.8857
G01 F500.00
G01 Z-0.0500
G01 F500.00
G01 X4.3512 Y10.9728
G01 X4.4381 Y10.9953
G01 X5.4111 Y10.9953
G01 X5.5055 Y10.9689
G01 X5.6681 Y10.8521
G01 X5.7868 Y10.8030
G01 X5.9128 Y10.7779
G01 X6.4912 Y10.7779
G01 X6.6172 Y10.8030
G01 X6.7359 Y10.8521
G01 X6.9515 Y10.9902
G01 X7.3403 Y10.9954
G01 X8.5626 Y11.9733
G01 X8.5627 Y13.8495
G01 X8.5959 Y13.9556
G01 X8.6823 Y14.0274
G01 X8.7600 Y14.0434
G01 X11.8646 Y14.0434
G01 X11.8647 Y14.3478
G01 X11.9271 Y14.5644
G01 X11.9271 Y15.9158
G01 X11.8646 Y16.1366
G01 X11.8647 Y17.9135
G01 X11.8979 Y18.0196
G01 X11.9776 Y18.0884
G01 X12.0620 Y18.1074
G01 X19.9420 Y18.1074
G01 X20.0457 Y18.0779
G01 X20.1204 Y17.9944
G01 X20.1394 Y17.9100
G01 X20.1393 Y14.8525
G01 X20.1018 Y14.7409
G01 X20.0264 Y14.6776
G01 X19.9576 Y14.6603
G01 X18.1580 Y14.6586
G01 X18.0378 Y14.7010
G01 X17.9796 Y14.7716
G01 X17.9607 Y14.8521
G01 X17.9606 Y16.6906
G01 X13.5354 Y16.6906
G01 X13.5353 Y16.1322
G01 X13.4729 Y15.9158
G01 X13.4729 Y14.5642
G01 X13.5353 Y14.3478
G01 X13.5354 Y14.0434
G01 X15.3735 Y14.0433
G01 X15.4737 Y14.0139
G01 X15.5383 Y13.9456
G01 X15.5673 Y13.8499
G01 X15.5854 Y12.5325
G01 X15.5674 Y12.4270
G01 X15.5673 Y11.8045
G01 X15.5341 Y11.6983
G01 X15.4544 Y11.6295
G01 X15.3739 Y11.6107
G01 X14.2995 Y11.6106
G01 X14.2084 Y11.6343
G01 X14.1159 Y11.7373
G01 X14.1022 Y11.8041
G01 X14.0982 Y12.0999
G01 X14.0532 Y12.2123
G01 X14.0057 Y12.2659
G01 X13.9423 Y12.3014
G01 X13.8407 Y12.3241
G01 X9.7799 Y12.3241
G01 X9.6970 Y12.3100
G01 X9.5869 Y12.2363
G01 X9.5426 Y12.1643
G01 X9.5199 Y12.0628
G01 X9.5192 Y11.6478
G01 X9.4937 Y11.5610
G01 X9.4484 Y11.5067
G01 X7.1132 Y9.7545
G01 X7.0563 Y9.6901
G01 X6.9957 Y9.5760
G01 X6.8872 Y9.5558
G01 X6.7901 Y9.5122
G01 X5.7690 Y8.7353
G01 X5.7326 Y8.6703
G01 X5.7099 Y8.5687
G01 X5.7109 Y7.3645
G01 X5.7599 Y7.2342
G01 X5.8424 Y7.1469
G01 X5.8822 Y7.0694
G01 X5.8909 Y6.7062
G01 X5.8512 Y6.5809
G01 X5.8064 Y6.5331
G01 X5.7358 Y6.4953
G01 X5.6675 Y6.4846
G01 X4.4706 Y6.4857
G01 X4.3508 Y6.5353
G01 X4.2606 Y6.6503
G01 X4.2446 Y6.7280
G01 X4.2446 Y10.7980
G01 X4.2673 Y10.8857
G00 Z1.0000
G00 X0.4278 Y20.2139
G01 F500.00
G01 Z-0.0500
G01 F500.00
G01 X0.4695 Y20.3237
G01 X0.5401 Y20.3819
G01 X0.6245 Y20.4009
G01 X32.1415 Y20.4009
G01 X32.2482 Y20.3696
G01 X32.3182 Y20.2911
G01 X32.3389 Y20.2035
G01 X32.3389 Y0.6245
G01 X32.3076 Y0.5178
G01 X32.2291 Y0.4478
G01 X32.1415 Y0.4271
G01 X0.6245 Y0.4271
G01 X0.5178 Y0.4584
G01 X0.4478 Y0.5369
G01 X0.4271 Y0.6245
G01 X0.4278 Y20.2139
G00 Z1.0000
G00 X0.2971 Y20.2327
G01 F500.00
G01 Z-0.0500
G01 F500.00
G01 X0.3332 Y20.3559
G01 X0.3819 Y20.4226
G01 X0.4903 Y20.5044
G01 X0.6245 Y20.5330
G01 X32.1415 Y20.5330
G01 X32.3197 Y20.4807
G01 X32.4332 Y20.3561
G01 X32.4710 Y20.2035
G01 X32.4710 Y0.6245
G01 X32.4187 Y0.4463
G01 X32.2941 Y0.3328
G01 X32.1415 Y0.2950
G01 X0.6245 Y0.2950
G01 X0.4463 Y0.3473
G01 X0.3328 Y0.4719
G01 X0.2950 Y0.6245
G01 X0.2971 Y20.2327
G00 Z1.0000
G00 X0.1663 Y20.2516
G01 F500.00
G01 Z-0.0500
G01 F500.00
G01 X0.2131 Y20.4108
G01 X0.2931 Y20.5204
G01 X0.4371 Y20.6254
G01 X0.6245 Y20.6651
G01 X32.1415 Y20.6651
G01 X32.2366 Y20.6515
G01 X32.3911 Y20.5919
G01 X32.4584 Y20.5349
G01 X32.5483 Y20.4210
G01 X32.5823 Y20.3350
G01 X32.6031 Y20.2035
G01 X32.6031 Y0.6245
G01 X32.5895 Y0.5294
G01 X32.5299 Y0.3749
G01 X32.4729 Y0.3076
G01 X32.3590 Y0.2177
G01 X32.2730 Y0.1837
G01 X32.1415 Y0.1629
G01 X0.6245 Y0.1629
G01 X0.5294 Y0.1765
G01 X0.3749 Y0.2361
G01 X0.3076 Y0.2931
G01 X0.2177 Y0.4070
G01 X0.1837 Y0.4930
G01 X0.1629 Y0.6245
G01 X0.1663 Y20.2516
G00 Z1.0000
G00 X17.9247 Y14.6297
G01 F500.00
G01 Z-0.0500
G01 F500.00
G01 X17.8532 Y14.7313
G01 X17.8343 Y14.8074
G01 X17.7045 Y14.7805
G01 X14.9305 Y14.7805
G01 X14.9271 Y14.5603
G01 X14.8767 Y14.4003
G01 X14.7640 Y14.2629
G01 X14.6897 Y14.2133
G01 X14.5940 Y14.1755
G01 X15.3798 Y14.1753
G01 X15.5190 Y14.1386
G01 X15.5193 Y14.3808
G01 X15.5634 Y14.5217
G01 X15.6836 Y14.6394
G01 X15.8135 Y14.6808
G01 X17.6398 Y14.6833
G01 X17.7824 Y14.6453
G01 X17.8737 Y14.5683
G01 X17.9247 Y14.6297
G00 Z1.0000
G00 X17.9843 Y14.4935
G01 F500.00
G01 Z-0.0500
G01 F500.00
G01 X18.0672 Y14.5773
G01 X18.1541 Y14.5998
G01 X19.9739 Y14.6038
G01 X20.0863 Y14.6488
G01 X20.2226 Y14.7815
G01 X20.3122 Y14.8053
G01 X22.2786 Y14.8054
G01 X22.2787 Y16.1355
G01 X22.3119 Y16.2416
G01 X22.4089 Y16.3165
G01 X22.4760 Y16.3294
G01 X25.0255 Y16.3293
G01 X25.1316 Y16.2961
G01 X25.2065 Y16.1991
G01 X25.2194 Y16.1320
G01 X25.2193 Y13.3285
G01 X25.1861 Y13.2224
G01 X25.0891 Y13.1475
G01 X25.0220 Y13.1346
G01 X21.9942 Y13.1346
G01 X21.9064 Y13.0819
G01 X21.7860 Y13.0586
G01 X20.8579 Y13.0599
G01 X20.7622 Y13.0832
G01 X20.6778 Y13.1346
G01 X19.7082 Y13.1346
G01 X19.6238 Y13.0832
G01 X19.5281 Y13.0599
G01 X18.5982 Y13.0586
G01 X18.4796 Y13.0819
G01 X18.3918 Y13.1346
G01 X18.1476 Y13.1353
G01 X18.0378 Y13.1770
G01 X17.9796 Y13.2476
G01 X17.9615 Y13.3203
G01 X17.9606 Y14.4025
G01 X17.9843 Y14.4935
G00 Z1.0000
G00 X17.9595 Y12.8256
G01 F500.00
G01 Z-0.0500
G01 F500.00
G01 X18.0835 Y12.8500
G01 X21.8407 Y12.8500
G01 X21.8390 Y12.9297
G01 X20.8514 Y12.9279
G01 X20.7442 Y12.9493
G01 X20.6341 Y13.0025
G01 X19.7519 Y13.0025
G01 X19.6322 Y12.9461
G01 X19.5050 Y12.9265
G01 X18.5654 Y12.9279
G01 X18.4582 Y12.9493
G01 X18.3481 Y13.0025
G01 X18.1095 Y13.0083
G01 X17.9595 Y13.0699
G01 X17.9595 Y12.8256
G00 Z1.0000
G00 X17.9088 Y12.6082
G01 F500.00
G01 Z-0.0500
G01 F500.00
G01 X17.9927 Y12.6953
G01 X18.0835 Y12.7179
G01 X21.8874 Y12.7179
G01 X22.0025 Y12.6803
G01 X22.0684 Y12.5993
G01 X22.0822 Y12.4890
G01 X22.0427 Y12.3993
G01 X21.9188 Y12.2567
G01 X21.8789 Y12.1293
G01 X21.8789 Y11.1277
G01 X21.9188 Y11.0003
G01 X21.9863 Y10.9088
G01 X22.0778 Y10.8413
G01 X22.2995 Y10.7751
G01 X22.3703 Y10.7036
G01 X22.3993 Y10.6079
G01 X22.3994 Y10.4319
G01 X23.4824 Y10.4312
G01 X23.5816 Y10.3986
G01 X23.6534 Y10.3122
G01 X23.6694 Y10.2345
G01 X23.6694 Y8.1965
G01 X23.6318 Y8.0814
G01 X23.5564 Y8.0181
G01 X23.4837 Y8.0000
G01 X23.0501 Y7.9991
G01 X22.9110 Y7.9821
G01 X22.4592 Y7.9821
G01 X22.3219 Y7.9991
G01 X19.9100 Y7.9991
G01 X19.7949 Y8.0367
G01 X19.7316 Y8.1121
G01 X19.7127 Y8.1926
G01 X19.7126 Y10.2851
G01 X18.0800 Y10.2852
G01 X17.9739 Y10.3184
G01 X17.9021 Y10.4048
G01 X17.8861 Y10.4825
G01 X17.8861 Y12.5205
G01 X17.9088 Y12.6082
G00 Z1.0000
G00 X24.7942 Y10.0051
G01 F500.00
G01 Z-0.0500
G01 F500.00
G01 X24.8259 Y10.0901
G01 X24.9056 Y10.1589
G01 X24.9848 Y10.1777
G01 X25.1388 Y10.1779
G01 X25.2437 Y10.1477
G01 X25.4041 Y10.0181
G01 X25.4867 Y10.0001
G01 X25.6842 Y10.0319
G01 X26.5860 Y10.0319
G01 X26.8425 Y9.9724
G01 X27.8489 Y9.9717
G01 X27.9481 Y9.9391
G01 X28.0133 Y9.8658
G01 X28.0350 Y9.7867
G01 X28.0500 Y9.5910
G01 X28.1323 Y9.4721
G01 X28.2497 Y9.4207
G01 X28.4333 Y9.4181
G01 X28.4815 Y9.3892
G01 X28.4959 Y9.3455
G01 X28.4916 Y8.3308
G01 X28.4662 Y8.2965
G01 X28.3706 Y8.2370
G01 X28.3259 Y8.1786
G01 X28.2603 Y8.0308
G01 X28.1784 Y7.9667
G01 X28.1048 Y7.9507
G01 X27.7521 Y7.9467
G01 X27.6397 Y7.9017
G01 X27.5861 Y7.8542
G01 X27.5506 Y7.7908
G01 X27.5279 Y7.6892
G01 X27.5272 Y6.6621
G01 X27.4984 Y6.5688
G01 X27.4272 Y6.5019
G01 X27.3305 Y6.4751
G01 X25.1863 Y6.4822
G01 X25.0861 Y6.5116
G01 X25.0193 Y6.5826
G01 X24.9937 Y6.6971
G01 X24.9942 Y7.9804
G01 X24.9492 Y8.0928
G01 X24.8165 Y8.2291
G01 X24.7927 Y8.3187
G01 X24.7942 Y10.0051
G00 Z1.0000
G00 X25.3057 Y10.2217
G01 F500.00
G01 Z-0.0500
G01 F500.00
G01 X25.3251 Y12.0704
G01 X25.3526 Y12.1676
G01 X25.4338 Y12.2438
G01 X25.5187 Y12.2653
G01 X26.3426 Y12.2654
G01 X26.3456 Y19.2007
G01 X26.3850 Y19.3002
G01 X26.4556 Y19.3584
G01 X26.5283 Y19.3765
G01 X27.8367 Y19.3744
G01 X27.9385 Y19.3324
G01 X27.9944 Y19.2644
G01 X28.0134 Y19.1800
G01 X28.0134 Y12.2099
G01 X31.0955 Y12.2098
G01 X31.1957 Y12.1804
G01 X31.2626 Y12.1092
G01 X31.2894 Y12.0125
G01 X31.2894 Y7.9425
G01 X31.2657 Y7.8515
G01 X31.1828 Y7.7677
G01 X31.1037 Y7.7460
G01 X30.5693 Y7.7451
G01 X30.4701 Y7.7722
G01 X30.3840 Y7.8378
G01 X30.3192 Y7.8526
G01 X28.5432 Y7.8526
G01 X28.4521 Y7.8763
G01 X28.3651 Y7.9649
G01 X28.3474 Y8.0746
G01 X28.3927 Y8.1778
G01 X28.5141 Y8.2639
G01 X28.5496 Y8.3430
G01 X28.5496 Y9.3580
G01 X28.5141 Y9.4371
G01 X28.4721 Y9.4652
G01 X28.2816 Y9.4733
G01 X28.2010 Y9.4963
G01 X28.1172 Y9.5792
G01 X28.0947 Y9.6661
G01 X28.0946 Y10.0311
G01 X26.8363 Y10.0312
G01 X26.6368 Y10.0856
G01 X25.6352 Y10.0856
G01 X25.4649 Y10.0586
G01 X25.3606 Y10.1131
G01 X25.3057 Y10.2217
G00 Z1.0000
G00 X27.5887 Y7.7118
G01 F500.00
G01 Z-0.0500
G01 F500.00
G01 X27.6199 Y7.8041
G01 X27.7133 Y7.8781
G01 X27.7840 Y7.8919
G01 X28.2668 Y7.8918
G01 X28.3622 Y7.8649
G01 X28.4469 Y7.8166
G01 X28.5484 Y7.7939
G01 X30.3383 Y7.7931
G01 X30.4710 Y7.7097
G01 X30.5746 Y7.6864
G01 X31.1093 Y7.6843
G01 X31.2016 Y7.6531
G01 X31.2668 Y7.5798
G01 X31.2894 Y7.4890
G01 X31.2894 Y2.3545
G01 X31.2599 Y2.2508
G01 X31.1828 Y2.1797
G01 X31.0920 Y2.1571
G01 X29.5584 Y2.1571
G01 X29.5541 Y2.0153
G01 X29.5287 Y1.9810
G01 X29.4868 Y1.9666
G01 X26.3350 Y1.9666
G01 X26.2740 Y1.9992
G01 X26.2616 Y2.0400
G01 X26.2616 Y3.0418
G01 X26.2884 Y3.0967
G01 X26.3332 Y3.1134
G01 X27.5866 Y3.1134
G01 X27.5887 Y7.7118
G00 Z1.0000
G00 X17.4753 Y4.8697
G01 F500.00
G01 Z-0.0500
G01 F500.00
G01 X17.5541 Y4.9653
G01 X17.5951 Y5.0490
G01 X17.6026 Y5.4564
G01 X17.5951 Y5.5080
G01 X17.5541 Y5.5917
G01 X17.4996 Y5.6492
G01 X17.4563 Y5.7373
G01 X17.4527 Y6.2295
G01 X17.4753 Y6.3137
G01 X17.5723 Y6.4074
G01 X17.6461 Y6.4233
G01 X17.8067 Y6.4234
G01 X17.8701 Y6.5390
G01 X17.9234 Y6.5771
G01 X18.0000 Y6.6004
G01 X19.2260 Y6.6004
G01 X19.3026 Y6.5771
G01 X19.3559 Y6.5390
G01 X19.4193 Y6.4234
G01 X21.8626 Y6.4234
G01 X21.8658 Y6.5868
G01 X21.8867 Y6.6199
G01 X21.9252 Y6.6381
G01 X23.4396 Y6.6388
G01 X23.4826 Y6.6222
G01 X23.5062 Y6.5868
G01 X23.5094 Y6.4234
G01 X26.8035 Y6.4233
G01 X26.9202 Y6.3810
G01 X26.9784 Y6.3104
G01 X26.9965 Y6.2377
G01 X26.9967 Y4.6301
G01 X26.9550 Y4.5203
G01 X26.8844 Y4.4621
G01 X26.8117 Y4.4440
G01 X17.6465 Y4.4432
G01 X17.5404 Y4.4764
G01 X17.4686 Y4.5628
G01 X17.4528 Y4.6353
G01 X17.4526 Y4.7820
G01 X17.4753 Y4.8697
G00 Z1.0000
M05
G00 Z1.0000
G00 Z15.00


